!!!!SEGMENT: pl-wn--mus-iii-72-699-cim_zarebski-juliusz--valse-caprice-op-24.krn
!!!cenid: 18xx:3554
!!!COM: Zarębski, Juliusz
!!!COM-rismID: pe30020631
!!!CDT: 1854/02/28-1885/09/15
!!!CNT:
!!!OTL: Valse Caprice op. 24
!!!PDT:
!!!AGN:
!!!YEC: Copyright 2022 Narodowy Instytut Fryderyka Chopina (https://polishscores.org)
!!!YEM: License CC-BY-4.0 (https://creativecommons.org/licenses/by/4.0)
!!!SMS-siglum: PL-Wn
!!!SMS-shelfmark: Mus.III.72.699 Cim.
!!!SMS-shelfwork: W
!!!SMS-variant:
!!!SMS-altvar:
!!!NIFC-rismSourceID:
!!!NIFC-rismChildID:
!!!NIFC-islandoraID: none
!!!URL-pdf-islandora:
!!!URL-scan: https://polona2.pl/item/valse-caprice-op-24,NTM4MjU5Nzk/4 @EN{Scan on Polona} @PL{Skany w portalu Polona}
!!!IIIF: https://polona2.pl/iiif/item/NTM4MjU5Nzk/manifest.json
!!!ONB-nifc:
!!!AIN: 2 piano
!!!key: G
!!!OMD: Allegro moderato.
**kern	**fing	**kern	**dynam	**fing
*part2	*	*part1	*	*
*staff2	*	*staff1	*	*
*I"[Piano]	*	*I"[Piano]	*	*
*	*	*I'	*	*
*Ipiano	*	*Ipiano	*	*
*ICklav	*	*ICklav	*	*
*clefG2	*	*clefG2	*	*
*kcancel	*	*kcancel	*	*
*k[f#]	*	*k[f#]	*	*
*G:	*	*G:	*	*
*M3/4	*	*M3/4	*	*
=1	=1	=1	=1	=1
*xywh-#5:508,547,2171,811	*	*xywh-#5:508,547,2171,811	*	*
4r	.	(4.aa\	p <	.
4a 4f#/	.	.	.	.
.	.	8dd\L	.	.
.	.	8qee/	.	.
[4a [4f#/	.	8dd\	.	.
.	.	8cc#X\J	.	.
=2	=2	=2	=2	=2
4a] 4f#/]	.	8dd\L	.	.
.	.	8ee\	.	.
4a 4f#/	.	8cc#X\	.	.
.	.	8ee\	.	.
[4a [4f#/	.	8dd\	.	.
.	.	8bb\J)	[	.
=3	=3	=3	=3	=3
4a] 4f#/]	.	(4.bb\	<	.
4a 4fn/	.	.	.	.
.	.	8dd\L	.	.
.	.	8qee/	.	.
[4a [4f/	.	8dd\	.	.
.	.	8cc#X\J	.	.
=4	=4	=4	=4	=4
4a] 4f/]	.	8dd\L	.	.
.	.	8ee\	.	.
4a 4fn/	.	8cc#X\	.	.
.	.	8ee\	.	.
(<[4a 4f/	.	8dd\	.	.
.	.	8bb\J)	[	.
!!linebreak:original
=5	=5	=5	=5	=5
*xywh-#5:296,1505,2369,567	*	*xywh-#5:296,1505,2369,567	*	*
*	*	*	*^	*
*	*	*	*	*xywh-#5:296,1505,2369,567	*
4a] 4g 4e/)	.	(4.bb\	<	<	.
4a 4g 4e/	.	.	.	.	.
.	.	8cc#X\L	.	.	.
.	.	8qdd/	.	.	.
[4a [4g [4e/	.	8cc#\	.	.	.
.	.	8b#X\J	.	.	.
*	*	*	*v	*v	*
=6	=6	=6	=6	=6
4a] 4g] 4e/]	.	8cc#X\L	.	.
.	.	8dd\	.	.
4a 4g 4e/	.	8b#X\	.	.
.	.	8ddn\	.	.
[4a [4g [4e/	.	8cc#\	.	.
.	.	8bb\J)	[	.
=7	=7	=7	=7	=7
4a] 4g] 4e/]	.	(4.bb\	mf <	.
4a 4g 4e-X/	.	.	.	.
.	.	8ccn\L	.	.
.	.	8qdd/	.	.
[4a [4g [4e-/	.	8cc\	.	.
.	.	8b\J	.	.
=8	=8	=8	=8	=8
4a] 4g] 4e-/]	.	8cc\L	.	.
.	.	8dd\	.	.
4a 4g 4e-X/	.	8b\	.	.
.	.	8dd\	.	.
4a 4g 4e-/	.	8cc\	.	.
.	.	8bb\J)	[	.
!!linebreak:original
=9	=9	=9	=9	=9
*xywh-#5:305,2206,2360,580	*	*xywh-#5:305,2206,2360,580	*	*
4r	.	(4.bb\	f	.
4cc 4f# 4d/	.	.	.	.
.	.	8aa\L	.	.
4a 4d/	.	8cc\	.	.
.	.	8ff#\J)	.	.
*clefF4	*	*	*	*
=10	=10	=10	=10	=10
4r	.	(4.ee\	.	.
.	.	.	>	.
4B 4D\	.	.	.	.
.	.	8dd\L	.	.
4d 4B\	.	8g\	.	.
.	.	8b\J)	.	.
=11	=11	=11	=11	=11
4r	.	(4.b/	.	.
4c 4F# 4D\	.	.	.	.
.	.	8a/L	.	.
4A 4D\	.	8c/	.	.
.	.	8f#/J)	.	.
=12	=12	=12	=12	=12
4r	.	(4.e/	.	.
4BB 4DD/	.	.	.	.
.	.	8d/L	.	.
4D 4BB/	.	8G/	.	.
.	.	8B/J)	]]	.
!!linebreak:original
*	*	*clefF4	*	*
=13	=13	=13	=13	=13
*xywh-#5:314,2976,2328,497	*	*xywh-#5:314,2976,2328,497	*	*
4r	.	(4.B\	>	.
4C 4DD/	.	.	.	.
.	.	8A\L	.	.
4C 4DD/	.	8E#X\	.	.
.	.	8F#\J)	]]	.
=14	=14	=14	=14	=14
4r	.	(4.B\	p	.
4C 4DD/	.	.	.	.
.	.	8A\L	.	.
4C 4DD/	.	8E#X\	.	.
.	.	8F#\J)	.	.
=15	=15	=15	=15	=15
!	!	!LO:TX:t=P:problem=text with extension lines	!	!
!	!	!LO:TX:b:i:t=molto rit.	!	!
4r	.	(4.c\	.	.
4C 4DD/	.	.	.	.
.	.	8A\L	.	.
4C 4DD/	.	8E#X\	.	.
.	.	8F#\J)	.	.
=16	=16	=16	=16	=16
4r	.	(4.c#X\	.	.
4AA#X 4DD/	.	.	.	.
.	.	8A#X\L	.	.
4AA# 4DD/	.	8E#X\	.	.
.	.	8F#\J)	.	.
!!pagebreak:original
=17||	=17||	=17||	=17||	=17||
*xywh-#6:522,462,2454,567	*	*xywh-#6:522,462,2454,567	*	*
*^	*	*	*	*
*	*xywh-#6:522,462,2454,567	*	*	*	*
!	!	!	!LO:TX:a:i:t=a tempo	!	!
4r	2GG\	.	(8c#XL 8A#X\	.	.
.	.	.	8dJ 8B\)	.	.
[2D/	.	.	2d 2B\	.	.
.	4DD\	.	.	.	.
*	*	*	*clefG2	*	*
=18	=18	=18	=18	=18	=18
4D/]	2FF#\	.	(8d#XL 8B/	<	.
.	.	.	8eJ 8cn/)	.	.
[2D/	.	.	(4.cc 4.e/	[	.
.	4DD\	.	.	.	.
.	.	.	8b 8d#/)	.	.
=19	=19	=19	=19	=19	=19
4D/]	2FF#\	.	8r	.	.
.	.	.	(8a 8c/	>	.
.	.	.	8qb/	.	.
2D/	.	.	8aL 8c/	.	.
.	.	.	8g#XJ 8B/	.	.
.	4DD\	.	4a 4c/)	]	.
*v	*v	*	*	*	*
=20	=20	=20	=20	=20
(4.GG/	.	(8a#XL 8f#/	.	.
.	.	8bJ 8gn/)	.	.
.	.	2b 2g/	.	.
8D\L	.	.	.	.
8G\	.	.	.	.
8B\J)	.	.	.	.
!!linebreak:original
=21	=21	=21	=21	=21
*xywh-#6:532,1108,2412,581	*	*xywh-#6:532,1108,2412,581	*	*
2G\	.	(8cc#XL 8a#X\	<	.
.	.	8ddJ 8b\)	.	.
.	.	2dd 2b\	.	.
4g 4B\	.	.	.	.
=22	=22	=22	=22	=22
2F#\	.	(8dd#XL 8b\	.	.
.	.	8eeJ 8ccn\)	.	.
.	.	(4.ccc 4.ee\	.	.
4a 4e 4c\	.	.	.	.
.	.	8bb 8dd#\)	[	.
=23	=23	=23	=23	=23
2D\	.	8r	.	.
.	.	(8aa 8cc\	>	.
.	.	8qbb/	.	.
.	.	8aaL 8cc\	.	.
.	.	8gg#XJ 8b\	.	.
4f# 4d\	.	4aa 4cc\)	.	.
.	.	.	]	.
*clefG2	*	*	*	*
=24	=24	=24	=24	=24
(4.G/	.	(8aa#XL 8ff#\	.	.
.	.	8bbJ 8ggn\)	.	.
.	.	2bb 2gg\	.	.
8d/L	.	.	.	.
8g/	.	.	.	.
8b/J)	.	.	.	.
!!linebreak:original
=25	=25	=25	=25	=25
*xywh-#6:527,1740,2421,585	*	*xywh-#6:527,1740,2421,585	*	*
2G#X/	.	(8ccc#XL 8ee\	<	.
.	.	8dddJ 8ffn\)	.	.
.	.	[2ddd [2ff\	[	.
4b 4fn 4d/	.	.	.	.
=26	=26	=26	=26	=26
4A/	.	4ddd] 4ff\]	>	.
(8dd#X\L	.	(8bb\L	.	.
8ee\)	.	8cccn\)	.	.
(8b\	.	(8gg#X\	.	.
8cc\J)	.	8aa\J)	]	.
*clefF4	*	*	*	*
=27	=27	=27	=27	=27
2D#X\	.	(8gg#XL 8b\	<	.
.	.	8aaJ 8cc\)	[	.
.	.	[2aa [2cc\	.	.
4f# 4c 4A\	.	.	.	.
=28	=28	=28	=28	=28
4E\	.	4aa] 4cc\]	.	.
*clefG2	*	*	*	*
(8a#X/L	.	(8ff#\L	>	.
8b/)	.	8ggn\)	.	.
(8f#/	.	(8dd#X\	.	.
8g/J)	.	8ee\J)	]	.
!!linebreak:original
*clefF4	*	*	*	*
=29	=29	=29	=29	=29
*xywh-#6:546,2428,2375,474	*	*xywh-#6:546,2428,2375,474	*	*
2AA/	.	(8dd#XL 8f#\	<	.
.	.	8eeJ 8g\)	.	.
.	.	(4.ee 4.g\	.	.
4c#X 4G 4E\	.	.	.	.
.	.	8gg\)	.	.
=30	=30	=30	=30	=30
2AA#X/	.	(8dd#XL 8f#\	.	.
.	.	8eeJ 8g\)	.	.
.	.	(4.ee 4.g\	.	.
4c#X 4G 4E\	.	.	.	.
.	.	8gg\)	[	.
=31	=31	=31	=31	=31
(2BB/	.	4r	.	.
.	.	(8dd#X\L	>	.
.	.	8ee\	.	.
4G\	.	8cc#X\	.	.
.	.	8ddn\J	.	.
=32	=32	=32	=32	=32
4d\)	.	8a#X/L	.	.
.	.	8b/	.	.
4r	.	8f#/	.	.
.	.	8g/	.	.
!	!	!LO:TX:b:i:t=rit.	!	!
4r	.	8d#X/	.	.
.	.	8e/J)	]]	.
!!linebreak:original
=33	=33	=33	=33	=33
*xywh-#6:536,3060,2384,543	*	*xywh-#6:536,3060,2384,543	*	*
*^	*	*	*	*
*	*xywh-#6:536,3060,2384,543	*	*	*	*
!	!	!	!LO:TX:a:i:t=a tempo	!	!
4r	2GG\	.	(8c#XL 8A#X/	.	.
.	.	.	8dnJ 8B/)	.	.
[2D/	.	.	2d 2B/	.	.
.	4DD\	.	.	.	.
=34	=34	=34	=34	=34	=34
4D/]	2FF#\	.	(8d#XL 8B/	<	.
.	.	.	8eJ 8cn/)	.	.
[2D/	.	.	(4.cc 4.e/	[	.
.	4DD\	.	.	.	.
.	.	.	8b 8d#/)	.	.
=35	=35	=35	=35	=35	=35
4D/]	2FF#\	.	8r	.	.
.	.	.	(8a 8c/	>	.
.	.	.	8qb/	.	.
2D/	.	.	8aL 8c/	.	.
.	.	.	8g#XJ 8B/	.	.
.	4DD\	.	4a 4c/)	.	.
*v	*v	*	*	*	*
=36	=36	=36	=36	=36
(4.GG/	.	(8a#XL 8f#/	.	.
.	.	8bJ 8gn/)	.	.
.	.	2b 2g/	]]	.
8D\L	.	.	.	.
8G\	.	.	.	.
8B\J)	.	.	.	.
!!pagebreak:original
=37	=37	=37	=37	=37
*xywh-#7:273,397,2335,483	*	*xywh-#7:273,397,2335,483	*	*
4.G\	.	(8cc#XL 8a#X\	<	.
.	.	8ddJ 8b\)	.	.
.	.	2dd 2b\	.	.
(8gL 8B\	.	.	.	.
8f#X\	.	.	.	.
8fn\J)	.	.	[	.
=38	=38	=38	=38	=38
4.F#\	.	(8dd#XL 8b\	<	.
.	.	8eeJ 8ccn\)	.	.
.	.	(4.ccc 4.ee\	[	.
(8aL 8e 8c\	.	.	.	.
8f#\	.	.	.	.
8g#X\J)	.	8bb 8dd#\)	.	.
=39	=39	=39	=39	=39
4D\	.	8r	.	.
.	.	(8aa 8cc\	>	.
.	.	8qbb/	.	.
(8f#L 8d\	.	8aaL 8cc\	.	.
8fn\	.	8gg#XJ 8b\	.	.
8e\	.	4aa 4cc\)	.	.
8e-X\J)	.	.	]]	.
=40	=40	=40	=40	=40
!LO:TX:t=P:problem=mixed beam	!	!	!	!
(>8d/L	.	(8aa#XL 8ff#\	.	.
8G/	.	8bbJ 8ggn\)	.	.
8d/	.	2bb 2gg\	.	.
8g>\	.	.	.	.
8b>\	.	.	.	.
8dd>\J)	.	.	.	.
!!linebreak:original
=41	=41	=41	=41	=41
*xywh-#7:254,1019,2330,511	*	*xywh-#7:254,1019,2330,511	*	*
4.G#X\	.	(8ccc#XL 8ee\	f	.
.	.	8dddJ 8ffn\)	.	.
.	.	2ddd 2ff\	.	.
*clefG2	*	*	*	*
8a#L 8e# 8d/	.	.	.	.
8a# 8e# 8d/	.	.	.	.
8b/J	.	.	.	.
=42	=42	=42	=42	=42
4A/	.	8r	p <	.
.	.	8dddL 8ff#X'\	.	.
(4cc#X 4an 4f#/	.	(8ddd 8ff#\	.	.
.	.	8fff# 8aa\)	.	.
4dd\)	.	(8fff# 8aa\	.	.
.	.	8aaaJ 8ddd\)	[	.
=43	=43	=43	=43	=43
4A#X/	.	8r	.	.
.	.	8ddd#XL 8ff#'\	>	.
(4b#X 4gn 4e/	.	(8ddd# 8ff#\	.	.
.	.	8eee 8gg\)	.	.
4cc#X\)	.	(8eee 8gg\	.	.
.	.	8gggJ 8ccc#X\)	.	.
=44	=44	=44	=44	=44
4B/	.	8r	.	.
.	.	8ccc#XL 8ee#X'\	.	.
(4a#X 4f# 4d/	.	(8ccc# 8ee#\	.	.
.	.	8ddd 8ff#\)	.	.
4b/)	.	(8ddd 8ff#\	.	.
.	.	8fff#J 8bb\)	]	.
!!linebreak:original
*clefF4	*	*	*	*
=45	=45	=45	=45	=45
*xywh-#7:231,1646,2353,479	*	*xywh-#7:231,1646,2353,479	*	*
4GG#X/	.	8r	<	.
.	.	8aa#L 8cc#X'\	.	.
(4e 4d 4G#X\	.	(8aa# 8cc#\	.	.
.	.	8bb 8dd\)	.	.
4e#X\)	.	(8bb 8dd\	.	.
.	.	8ccc#XJ 8ee#X\)	[	.
=46	=46	=46	=46	=46
4AA/	.	(8ccc#XL 8ee#X\	.	.
.	.	8ddd 8ff#\)	.	.
(4f# 4A\	.	(8ddd 8ff#\	.	.
.	.	8aa\	.	.
4a 4d\)	.	8ff#\	.	.
.	.	8dd\J)	.	.
=47	=47	=47	=47	=47
4AA/	.	(8ff#L 8a#X\	>	.
.	.	8gg 8b\)	.	.
4c#X 4G 4E\	.	(8gg 8b\	.	.
.	.	8ee\	.	.
4r	.	8cc#X\	.	.
.	.	8g\J)	.	.
=48	=48	=48	=48	=48
4AA/	.	(8cc#XL 8e#X/	.	.
.	.	8dd 8f#/)	.	.
!	!	!LO:TX:a:i:t=molto rit.	!	!
4d 4F#\	.	(8dd 8f#/	.	.
.	.	8a/	.	.
4r	.	8f#/	.	.
.	.	8d/J)	]	.
!!linebreak:original
=49	=49	=49	=49	=49
*xywh-#7:203,2240,2390,552	*	*xywh-#7:203,2240,2390,552	*	*
!	!	!LO:TX:a:i:t=a tempo	!	!
2.DD/	.	(8cc#XL 8e#X/	f	.
.	.	8dd 8f#/)	.	.
.	.	(8dd 8f#/	.	.
.	.	8a/	.	.
.	.	8f#/	.	.
.	.	8d/J)	.	.
=50	=50	=50	=50	=50
(8c#X\L	.	4r	.	.
8d\)	.	.	.	.
(8d\	.	2dd 2f#/	.	.
8A\	.	.	.	.
8F#\	.	.	.	.
8D\J)	.	.	.	.
=51	=51	=51	=51	=51
2.DD/	.	(8dd#XL 8f#\	<	.
.	.	8ee 8g\)	.	.
.	.	(8ee 8g\	.	.
.	.	8ccn\	.	.
.	.	8g\	.	.
.	.	8e\J)	[	.
=52	=52	=52	=52	=52
*	*^	*	*	*
(8d#X\L	.	.	4r	.	.
8e\)	.	.	.	.	.
(8e\	.	1	2ee 2cc 2g\	.	.
8c\	.	2	.	.	.
8G\	.	4	.	.	.
8Dn\J)	.	1	.	.	.
!!linebreak:original
=53	=53	=53	=53	=53	=53
*xywh-#7:185,2922,2381,502	*	*xywh-#7:185,2922,2381,502	*	*	*
4DD/	.	5	8r	pp	.
.	.	.	(8g\L	.	.
4r	.	.	8ee\	.	.
.	.	.	8gg\J	.	.
8d 8F#'\	.	.	8ff# 8dd'\)	.	.
8r	.	.	8r	.	.
*	*v	*v	*	*	*
=54	=54	=54	=54	=54
4DD/	.	8r	.	.
.	.	(8e\L	.	.
4r	.	8cc\	.	.
.	.	8ee\J	.	.
8B 8D'\	.	8dd 8b'\)	.	.
8r	.	8r	.	.
=55	=55	=55	=55	=55
4DD/	.	8r	.	.
.	.	(8c/L	.	.
4r	.	8a/	.	.
.	.	8cc/J)	.	.
(>8c#X\L	.	4b 4g/	.	.
8e\J	.	.	.	.
=56	=56	=56	=56	=56
!LO:TX:t=P:problem=mixed beam	!	!	!LO:HP:b=2	!
8d/L	.	4.a 4.f#/	<	.
8f#/	.	.	.	.
8a/	.	.	.	.
8dd>\	.	4.ryy	.	.
8ff#>\	.	.	.	.
8aa>\J)	.	.	[	.
!!pagebreak:original
=57	=57	=57	=57	=57
*xywh-#8:521,403,2416,501	*	*xywh-#8:521,403,2416,501	*	*
2.D\	.	(8ccc#XL 8ee#X\	f	.
.	.	8dddJ 8ff#\)	.	.
.	.	(8dddL 8ff#\	.	.
.	.	8aa\	.	.
.	.	8ff#\	.	.
.	.	8dd\J)	.	.
*clefG2	*	*	*	*
=58	=58	=58	=58	=58
(8cc#X\L	.	4r	.	.
8dd\J)	.	.	.	.
(8dd/L	.	2ddd 2ff#\	.	.
8a/	.	.	.	.
8f#/	.	.	.	.
8d/J)	.	.	.	.
*clefF4	*	*	*	*
=59	=59	=59	=59	=59
2.Cn/	.	(8dddL 8ff#\	.	.
.	.	8eee-XJ 8gg\)	.	.
.	.	(8eee-L 8gg\	.	.
.	.	8cccn\	.	.
.	.	8gg\	.	.
.	.	8ee-X\J)	.	.
*clefG2	*	*	*	*
=60	=60	=60	=60	=60
(8dd\L	.	4r	.	.
8ee-X\J)	.	.	.	.
(8ee-/L	.	2eee-X 2gg\	.	.
8cc/	.	.	.	.
8g/	.	.	.	.
8e-X/J)	.	.	.	.
*clefF4	*	*	*	*
!!linebreak:original
=61	=61	=61	=61	=61
*xywh-#8:521,992,2398,647	*	*xywh-#8:521,992,2398,647	*	*
4Fn\	.	8r	pp	.
.	.	(8gg\L	.	.
4r	.	8eee-X\	.	.
.	.	8ggg\J	.	.
8a 8e-X 8c'\	.	8fffn 8ddd 8ffn'\)	.	.
8r	.	8r	.	.
=62	=62	=62	=62	=62
4FFn/	.	8r	.	.
.	.	(8ee-X\L	.	.
4r	.	8ccc\	.	.
.	.	8eee-X\J	.	.
8g 8e-X 8A'\	.	8ddd 8bb-X 8dd'\)	.	.
8r	.	8r	.	.
=63	=63	=63	=63	=63
*ped	*	*	*	*
!	!	!	!	!
4BBB-X/	.	8r	.	.
.	.	(8dd\L	.	.
4r	.	8ddd\	.	.
.	.	8bb-X\	.	.
4B-X 4Fn\	.	8ffn\	.	.
.	.	8dd\J	.	.
=64	=64	=64	=64	=64
4d 4B-X\	.	8b-X/L	.	.
.	.	8fn/	.	.
4r	.	8d/	.	.
.	.	8f/	.	.
4r;	.	8b-/	.	.
.	.	8dd^>;/J)	.	.
*Xped	*	*	*	*
!!linebreak:original
=65	=65	=65	=65	=65
*xywh-#8:521,1640,2410,525	*	*xywh-#8:521,1640,2410,525	*	*
!	!	!LO:TX:a:B:t=Più vivo.	!	!
(4C/	.	(8e/L	p <	.
.	.	8dd 8f#X/	.	.
4c 4D'\)	.	8e/	[	.
.	.	8dd 8a/	>	.
4BB'/	.	8g/	.	.
.	.	8d/J)	]	.
=66	=66	=66	=66	=66
(4C/	.	(8e/L	<	.
.	.	8dd 8f#/	.	.
4c 4D'\)	.	8e/	[	.
.	.	8dd 8a/	>	.
4BB'/	.	8g/	.	.
.	.	8d/J)	]	.
=67	=67	=67	=67	=67
(4C/	.	(8e/L	<	.
.	.	8dd 8f#/	.	.
4c 4D\	.	8e/	.	.
.	.	8dd 8b/	.	.
4C/	.	8e/	.	.
.	.	8ddJ 8a/	[	.
=68	=68	=68	=68	=68
4c 4D\	.	8e/L	>	.
.	.	8dd 8f#/	.	.
4C'/)	.	8e/	.	.
.	.	8dd 8f#/	.	.
4BB'/	.	8d/	.	.
.	.	8ddJ 8g/)	]	.
=69	=69	=69	=69	=69
(4Fn\	.	(8a\L	<	.
.	.	8gg 8b\	.	.
4fn 4G'\)	.	8a\	[[	.
.	.	8gg 8dd\	>	.
4E'\	.	8cc\	.	.
.	.	8g\J)	]	.
!!linebreak:original
=70	=70	=70	=70	=70
*xywh-#8:504,2334,2404,560	*	*xywh-#8:504,2334,2404,560	*	*
(4Fn\	.	(8a\L	<	.
.	.	8gg 8b\	.	.
4fn 4G'\)	.	8a\	[	.
.	.	8gg 8dd\	>	.
4E'\	.	8cc\	.	.
.	.	8g\J)	]	.
=71	=71	=71	=71	=71
(4Fn\	.	(8a\L	<	.
.	.	8gg 8b\	.	.
4fn 4G\	.	8a\	.	.
.	.	8gg 8ee\	.	.
4F\	.	8a\	.	.
.	.	8ggJ 8dd\	[	.
=72	=72	=72	=72	=72
4fn 4G\	.	8a\L	>	.
.	.	8gg 8b\	.	.
4Fn'\)	.	8a\	.	.
.	.	8gg 8b\	.	.
4E'\	.	8g\	.	.
.	.	8ggJ 8cc\)	]	.
=73	=73	=73	=73	=73
4GG 4CC'/	.	(8g\L	<	.
.	.	8gg 8cc\	.	.
2G 2C^\	.	8g\	.	.
.	.	8gg 8cc\	.	.
.	.	8g\	.	.
.	.	8ggJ 8dd\	.	.
=74	=74	=74	=74	=74
4GG 4CC'/	.	8g\L	<	.
.	.	8gg 8ee\	.	.
2G 2C^\	.	8g\	.	.
.	.	8gg 8ff#\	.	.
.	.	8ee\	.	.
.	.	8cc\J)	[	.
!!linebreak:original
=75	=75	=75	=75	=75
*xywh-#8:510,2959,2392,571	*	*xywh-#8:510,2959,2392,571	*	*
4C#X 4CC#X'/	.	(8b\L	f	.
.	.	8bb 8ee\	.	.
2B 2C#^\	.	8b\	.	.
.	.	8bb 8ee\	.	.
.	.	8b\	.	.
.	.	8bbJ 8ff#X\	.	.
=76	=76	=76	=76	=76
4C#X 4CC#X'/	.	8b\L	.	.
.	.	8bb 8gg\	.	.
2B 2C#^\	.	8b\	.	.
.	.	8bb 8aa\	.	.
.	.	8gg\	.	.
.	.	8ee\J)	.	.
=77	=77	=77	=77	=77
4D 4DD/	.	(8ccn\L	.	.
.	.	8ccc 8bb\	.	.
(4d 4F#\	.	8cc\	<	.
.	.	8ccc 8bb\	.	.
4e 4G\	.	8aa\	.	.
.	.	8ff#\J	.	.
=78	=78	=78	=78	=78
4f# 4A\	.	8ee\L	.	.
.	.	8eee 8ddd\	.	.
4g 4B\	.	8ee\	[	.
.	.	8eee 8ddd\	>	.
4f# 4A\)	.	8ccc\	.	.
.	.	8aa\J)	]	.
!!pagebreak:original
=79	=79	=79	=79	=79
*xywh-#9:304,405,2379,649	*	*xywh-#9:304,405,2379,649	*	*
(4e 4G\	.	(8cc\L	<	.
.	.	8ccc 8bb\	.	.
4d 4F#\	.	8cc\	.	.
.	.	8ccc 8bb\	.	.
4e 4G\	.	8aa\	.	.
.	.	8ff#\J	.	.
=80	=80	=80	=80	=80
4f# 4A\	.	8ee\L	.	.
.	.	8eee 8ddd\	.	.
4g 4B\	.	8ee\	[	.
.	.	8eee 8ddd\	.	.
4f# 4A\)	.	8ccc\	.	.
.	.	8aa\J)	.	.
*clefG2	*	*	*	*
=81	=81	=81	=81	=81
!	!	!LO:TX:a:i:t=animando	!	!
(4g 4B/	.	(8ee\L	p <	.
.	.	8eee 8ddd\	.	.
4f# 4A/	.	8ccc\	.	.
.	.	8aa\	.	.
4a 4c/	.	8ee\	.	.
.	.	8eee 8ddd\J	.	.
=82	=82	=82	=82	=82
4g 4B/	.	8ccc\L	.	.
.	.	8aa\	.	.
4b 4d/	.	8ee\	.	.
.	.	8eee 8ddd\	.	.
4a 4c/)	.	8ccc\	.	.
.	.	8aa\J)	[	.
!!linebreak:original
=83	=83	=83	=83	=83
*xywh-#9:304,1040,2375,598	*	*xywh-#9:304,1040,2375,598	*	*
(4cc 4e/	.	(8ee\L	.	.
.	.	8eee 8ddd\	.	.
4b 4d/	.	8ccc\	.	.
.	.	8aa\	.	.
4dd 4f#/	.	8ee\	.	.
.	.	8eeeJ 8ddd\	.	.
=84	=84	=84	=84	=84
!	!	!LO:TX:a:i:t=poco rit.	!	!
4cc 4e/	.	8ccc\L	>	.
.	.	8aa\	.	.
4b 4d/	.	8ee\	.	.
.	.	8eee 8ddd\	.	.
4a 4c/)	.	8ccc\	.	.
.	.	8aa\J)	]	.
=85	=85	=85	=85	=85
!	!	!LO:TX:a:i:t=a tempo	!	!
(>4c/	.	(8ee\L	p <	.
.	.	8ddd 8ff#\	.	.
4cc 4d'/)	.	8ee\	.	.
.	.	8ddd 8aa\	[>	.
4B'/	.	8gg\	.	.
.	.	8dd\J)	]	.
=86	=86	=86	=86	=86
(>4c/	.	(8ee\L	<	.
.	.	8ddd 8ff#\	.	.
4cc 4d'/)	.	8ee\	.	.
.	.	8ddd 8aa\	[>	.
4B'/	.	8gg\	.	.
.	.	8dd\J)	]	.
=87	=87	=87	=87	=87
(4c/	.	(8ee\L	<	.
.	.	8ddd 8ff#\	.	.
4cc 4d/	.	8ee\	.	.
.	.	8ddd 8bb\	.	.
4c/	.	8ee\	.	.
.	.	8dddJ 8aa\	[	.
!!linebreak:original
=88	=88	=88	=88	=88
*xywh-#9:295,1685,2361,520	*	*xywh-#9:295,1685,2361,520	*	*
!LO:TX:t=P:problem=łuk górny	!	!	!	!
4cc 4d/	.	8ee\L	>	.
.	.	8ddd 8ff#\	.	.
4c'/)	.	8ee\	.	.
.	.	8ddd 8ff#\	.	.
4B'/	.	8dd\	.	.
.	.	8dddJ 8gg\)	]	.
=89	=89	=89	=89	=89
(4fn/	.	(8aa\L	<	.
.	.	8ggg 8bb\	.	.
4ffn 4g'\)	.	8aa\	.	.
.	.	8ggg 8ddd\	[>	.
4e'/	.	8ccc\	.	.
.	.	8gg\J)	]	.
=90	=90	=90	=90	=90
(4fn/	.	(8aa\L	<	.
.	.	8ggg 8bb\	.	.
4ffn 4g'\)	.	8aa\	.	.
.	.	8ggg 8ddd\	[ >	.
4e'/	.	8ccc\	.	.
.	.	8gg\J)	]	.
=91	=91	=91	=91	=91
(4fn/	.	(8aa\L	<	.
.	.	8ggg 8bb\	.	.
4ffn 4g\	.	8aa\	.	.
.	.	8ggg 8eee\	.	.
4f/	.	8aa\	.	.
.	.	8gggJ 8ddd\	[	.
!!linebreak:original
=92	=92	=92	=92	=92
*xywh-#9:286,2260,2375,630	*	*xywh-#9:286,2260,2375,630	*	*
4ffn 4g\	.	8aa\L	.	.
.	.	8ggg 8bb\	>	.
4fn'>/)	.	8aa\	.	.
.	.	8ggg 8bb\	.	.
4e'/	.	8gg\	.	.
.	.	8gggJ 8ccc\)	]	.
*clefF4	*	*	*	*
=93	=93	=93	=93	=93
!	!	!LO:TX:b:i:t=sempre più animato	!	!
4GG 4CC'/	.	(8gg\L	<	.
.	.	8ggg 8ccc\	.	.
2G 2C^\	.	8gg\	.	.
.	.	8ggg 8ccc\	.	.
.	.	8gg\	.	.
.	.	8gggJ 8ddd\	<	.
=94	=94	=94	=94	=94
4GG 4CC'/	.	8gg\L	.	.
.	.	8ggg 8eee-X\	.	.
2G 2C^\	.	8gg\	.	.
.	.	8ggg 8fffn\	.	.
.	.	8eee-\	.	.
.	.	8ccc\J)	[[	.
=95	=95	=95	=95	=95
*	*	*8va	*	*
4C#X 4CC#X'/	.	(8bb\L	f	.
.	.	8bbb 8eee\	.	.
2B 2C#^\	.	8bb\	.	.
.	.	8bbb 8eee\	.	.
.	.	8bb\	.	.
.	.	8bbbJ 8eee\	.	.
!!linebreak:original
=96	=96	=96	=96	=96
*xywh-#9:263,2909,2375,658	*	*xywh-#9:263,2909,2375,658	*	*
4C#X 4CC#X'/	.	8bb\L	.	.
.	.	8bbb 8ggg\	.	.
2B 2C#^\	.	8bb\	.	.
.	.	8bbb 8aaa\	.	.
.	.	8ggg\	.	.
.	.	8eee\J)	.	.
=97	=97	=97	=97	=97
4D 4DD'/	.	(8ddd\L	.	.
.	.	8dddd 8bbb-X\	.	.
2d 2G\	.	8ddd\	.	.
.	.	8dddd 8bbb-\	.	.
.	.	8aaa\	.	.
.	.	8ggg\J)	.	.
=98	=98	=98	=98	=98
*ped	*	*	*	*
!	!	!	!	!
4E-X 4EE-X/	.	(8ggg\L	<	.
.	.	8gggg 8eeee-X\	.	.
(4e-X 4G\	.	8ggg\	.	.
.	.	8gggg 8eeee-\	.	.
4g 4B-X\	.	8dddd\	.	.
.	.	8cccc#X\J)	[	.
*clefG2	*	*X8va	*	*
=99	=99	=99	=99	=99
!	!	!LO:TX:b:i:t=con bravura	!	!
4b-X 4e-X/)	.	(8ggg\L	.	.
.	.	8ggg 8eee-X\	.	.
4r	.	8ddd\	.	.
.	.	8ccc#X\	.	.
4r	.	8gg\	.	.
.	.	8ggJ 8ee-X\	.	.
=100	=100	=100	=100	=100
2.r	.	8dd/L	.	.
.	.	8cc#X/	.	.
.	.	8g/	.	.
.	.	8g 8e-X/	.	.
.	.	8d/	.	.
.	.	8c#X/J)	.	.
*Xped	*	*	*	*
*clefF4	*	*	*	*
!!pagebreak:original
=101	=101	=101	=101	=101
*xywh-#10:485,448,2396,501	*	*xywh-#10:485,448,2396,501	*	*
2B-X\	.	8r	.	.
.	.	(8gL 8e-X/	.	.
.	.	8d/	.	.
.	.	8c#X/)	.	.
[4A\	.	8r	.	.
.	.	(8gJ 8e-/	.	.
=102	=102	=102	=102	=102
4A\]	.	8d/L	.	.
.	.	8c#X/)	.	.
2B-X\	.	8r	.	.
.	.	(8g 8e-X/	.	.
.	.	8d/	.	.
.	.	8c#/J)	.	.
=103	=103	=103	=103	=103
*	*	*	*^	*
*	*	*	*	*	*
[2.Bn\	.	8r	.	.	.
!	!	!	!LO:HP:a:t=dim.	!	!
.	.	(8gL 8en/	>	>	.
.	.	8d#X/	.	.	.
.	.	8c#X/	.	.	.
.	.	8d#/	.	.	.
.	.	8e/J	.	.	.
=104	=104	=104	=104	=104	=104
2.B\]	.	8f#X/L	.	.	.
.	.	8b 8g/	.	.	.
.	.	8f#/	.	.	.
.	.	8e/	.	.	.
.	.	8d#X/	.	.	.
.	.	8c#X/J)	.	.	.
=105	=105	=105	=105	=105	=105
[2.A [2.BB\	.	8r	p	.	.
.	.	(8gL 8e/	.	.	.
.	.	8d#X/	.	.	.
.	.	8c#X/	.	.	.
.	.	8d#/	.	.	.
.	.	8e/J	.	.	.
=106	=106	=106	=106	=106	=106
!	!	!LO:TX:a:i:t=molto rit.	!	!	!
2.A] 2.BB\]	.	8f#X/L	.	.	.
.	.	8b 8g/	.	.	.
.	.	8f#/	.	.	.
.	.	8e/	.	.	.
.	.	8f#/	.	.	.
.	.	8d#X/J)	.	]	.
*	*	*	*v	*v	*
!!linebreak:original
=107||	=107||	=107||	=107||	=107||
*xywh-#10:485,1043,2400,575	*	*xywh-#10:485,1043,2400,575	*	*
*^	*	*	*	*
*	*xywh-#10:485,1043,2400,575	*	*	*	*
!	!	!	!LO:TX:a:B:t=Tranquillo.	!	!
!	!	!	!LO:TX:a:i:t=cantando	!	!
4rc>	2EE/	.	(>[2.b/	p	.
!LO:TX:t=P:problem=mixed beam	!	!	!	!	!
(8e>\L	.	.	.	.	.
8B>\	.	.	.	.	.
8G/	4ryy	.	.	.	.
8BB/J)	.	.	.	.	.
=108	=108	=108	=108	=108	=108
!LO:TX:t=P:problem=mixed beam	!	!	!	!	!
(8d#>X\L	4GG/	.	2b/]	.	.
8B>\	.	.	.	.	.
8G/	2ryy	.	.	.	.
8BB/J)	.	.	.	.	.
4r	.	.	8g/L	.	.
.	.	.	8a/J)	.	.
=109	=109	=109	=109	=109	=109
4rc>	2EE/	.	(>[2.b/	.	.
!LO:TX:t=P:problem=mixed beam	!	!	!	!	!
(8e>\L	.	.	.	.	.
8B>\	.	.	.	.	.
8G/	4ryy	.	.	.	.
8BB/J)	.	.	.	.	.
=110	=110	=110	=110	=110	=110
!LO:TX:t=P:problem=mixed beam	!	!	!	!	!
(8d#X>\L	4GG/	.	2b/]	.	.
8B>|	.	.	.	.	.
8G/	2ryy	.	.	.	.
8BB/J)	.	.	.	.	.
4r	.	.	8g/L	.	.
.	.	.	8a/J)	.	.
=111	=111	=111	=111	=111	=111
!LO:TX:t=P:problem=mixed beam	!	!	!	!	!
(8b>\L	4.EE/	.	(>2b/	.	.
8g>\	.	.	.	.	.
8e>\	.	.	.	.	.
8B/	4.ryy	.	.	.	.
8G/	.	.	4ee/	.	.
8E/J)	.	.	.	.	.
!!linebreak:original
=112	=112	=112	=112	=112	=112
*xywh-#10:480,1683,2391,547	*xywh-#10:480,1683,2391,547	*	*xywh-#10:480,1683,2391,547	*	*
!LO:TX:t=P:problem=mixed beam	!	!	!	!	!
(8cc>\L	4.AA/	.	2cc/	.	.
8a>\	.	.	.	.	.
8e>\	.	.	.	.	.
8c/	4.ryy	.	.	.	.
8A/	.	.	4gg/)	.	.
8E/J)	.	.	.	.	.
=113	=113	=113	=113	=113	=113
!LO:TX:t=P:problem=mixed beam	!	!	!	!LO:HP:a	!
(8ee>\L	4.EE/	.	(>2ee/	<	.
8g>\	.	.	.	.	.
8e>\	.	.	.	.	.
8B/	4.ryy	.	.	.	.
8G/	.	.	4b/	.	.
8E/J)	.	.	.	.	.
=114	=114	=114	=114	=114	=114
!LO:TX:t=P:problem=mixed beam	!	!	!	!	!
(8cc>\L	4.AA/	.	2cc/	.	.
8a>\	.	.	.	.	.
8e>\	.	.	.	.	.
8c/	4.ryy	.	.	.	.
8A/	.	.	4gg/)	[[	.
8E/J)	.	.	.	.	.
*v	*v	*	*	*	*
=115	=115	=115	=115	=115
!LO:TX:t=P:problem=mixed beam	!	!	!LO:HP:a	!
(>8ff#>\L	.	(>2ff#/	>	.
8cc>\	.	.	.	.
8f#>\	.	.	.	.
8c/	.	.	.	.
8F#/	.	4ee/	.	.
8E/J)	.	.	.	.
=116	=116	=116	=116	=116
*^	*	*	*	*
*	*xywh-#10:480,1683,2391,547	*	*	*	*
!LO:TX:t=P:problem=mixed beam	!	!	!	!	!
(8dd#X>\L	4.AA/	.	2dd#X/	.	.
8cc>\	.	.	.	.	.
8f#>\	.	.	.	.	.
8c/	4.ryy	.	.	.	.
8F#/	.	.	4ee/	]]	.
8E/J)	.	.	.	.	.
!!linebreak:original
=117	=117	=117	=117	=117	=117
*xywh-#10:480,2352,2405,515	*xywh-#10:480,2352,2405,515	*	*xywh-#10:480,2352,2405,515	*	*
!LO:TX:t=P:problem=mixed beam	!	!	!	!	!
(8ddn>\L	4.GG#X/	.	2ddn/	.	.
8b>\	.	.	.	.	.
8e>\	.	.	.	.	.
8B/	4.ryy	.	.	.	.
8E/	.	.	4ee/	.	.
8D/J)	.	.	.	.	.
=118	=118	=118	=118	=118	=118
!LO:TX:t=P:problem=mixed beam	!	!	!	!	!
(8cc>\L	[2.AA/	.	[>2.cc/)	.	.
8a>\	.	.	.	.	.
8e>\	.	.	.	.	.
8c>\	.	.	.	.	.
8A/	.	.	.	.	.
8E/J)	.	.	.	.	.
=119	=119	=119	=119	=119	=119
!LO:TX:t=P:problem=mixed beam	!	!	!	!	!
(8e>\L	2.AA/]	.	(>2cc/]	.	.
8c>\	.	.	.	.	.
8A/	.	.	.	.	.
8E/	.	.	.	.	.
8A/	.	.	4cc/	.	.
8E/J)	.	.	.	.	.
=120	=120	=120	=120	=120	=120
!LO:TX:t=P:problem=mixed beam	!	!	!	!	!
(8b>\L	4.GGn/	.	2b/	.	.
8e>\	.	.	.	.	.
8c>\	.	.	.	.	.
8A/	4.ryy	.	.	.	.
8E/	.	.	4cc/	.	.
8C/J)	.	.	.	.	.
=121	=121	=121	=121	=121	=121
!LO:TX:t=P:problem=mixed beam	!	!	!	!	!
(8a>\L	4.FF#/	.	2a/	.	.
8d#X>\	.	.	.	.	.
8B>\	.	.	.	.	.
8A/	4.ryy	.	.	.	.
8D#X/	.	.	4b/	.	.
8BB/J)	.	.	.	.	.
!!linebreak:original
=122	=122	=122	=122	=122	=122
*xywh-#10:471,3007,2414,622	*xywh-#10:471,3007,2414,622	*	*xywh-#10:471,3007,2414,622	*	*
!LO:TX:t=P:problem=mixed beam	!	!	!	!	!
(8a>\L	4.EE/	.	[>2.a/)	.	.
8e>\	.	.	.	.	.
8c>\	.	.	.	.	.
8A/	4.ryy	.	.	.	.
8E/	.	.	.	.	.
8C/J)	.	.	.	.	.
=123	=123	=123	=123	=123	=123
!LO:TX:t=P:problem=mixed beam	!	!	!	!	!
(8f#X>\L	4.DD#X/	.	(>2a/]	.	.
8B>\	.	.	.	.	.
8A/	.	.	.	.	.
8D#X/J	4.ryy	.	.	.	.
4BB/)	.	.	4a/	.	.
=124	=124	=124	=124	=124	=124
*ped	*	*	*	*	*
!LO:TX:t=P:problem=mixed beam	!	!	!	!	!
(8g>\L	[2.DDn\	.	2g/	<	.
8e>\	.	.	.	.	.
8B>\	.	.	.	.	.
8G/	.	.	.	.	.
8E/	.	.	4b/)	.	.
8BB/J)	.	.	.	.	.
=125	=125	=125	=125	=125	=125
!LO:TX:t=P:problem=mixed beam	!	!	!	!	!
(8g>\L	2.DD\]	.	(>2g/	.	.
8e>\	.	.	.	.	.
8B>\	.	.	.	.	.
8G/	.	.	.	.	.
8E/	.	.	4g/	.	.
8BB/J)	.	.	.	.	.
*Xped	*	*	*	*	*
=126	=126	=126	=126	=126	=126
*ped	*	*	*	*	*
!LO:TX:t=P:problem=mixed beam	!	!	!	!	!
(8e>\L	[2.CC\	.	2e/	.	.
8c>\	.	.	.	.	.
8G/	.	.	.	.	.
8E/J	.	.	.	.	.
4C/)	.	.	4cc/)	.	.
=127	=127	=127	=127	=127	=127
!LO:TX:t=P:problem=mixed beam	!	!	!	!	!
(8g>\L	2.CC\]	.	(>2g/	.	.
8e>\	.	.	.	.	.
8c>\	.	.	.	.	.
8G/	.	.	.	.	.
8E/	.	.	4g/	.	.
8C/J)	.	.	.	.	.
*Xped	*	*	*	*	*
!!pagebreak:original
=128	=128	=128	=128	=128	=128
*xywh-#11:365,449,2354,608	*xywh-#11:365,449,2354,608	*	*xywh-#11:365,449,2354,608	*	*
!LO:TX:t=P:problem=mixed beam	!	!	!	!	!
(8e>\L	4BBB/	.	2e/	.	.
8c>\	.	.	.	.	.
8G/	2ryy	.	.	.	.
8E/J	.	.	.	.	.
4BB/)	.	.	[>4dd^>/)	.	.
=129	=129	=129	=129	=129	=129
!	!	!	!	!LO:HP:a	!
8re>	4.AAA/	.	(2dd/]	>	.
!LO:TX:t=P:problem=mixed beam	!	!	!	!	!
(8f#>\L	.	.	.	.	.
8e>\	.	.	.	.	.
8c/	4.ryy	.	.	.	.
8F#/	.	.	[>4cc/	.	.
8E/J)	.	.	.	.	.
*v	*v	*	*	*	*
=130	=130	=130	=130	=130
!	!	!LO:TX:b:i:t=rit.	!	!
(8D\L	.	2cc\]	.	.
8A\	.	.	.	.
8B\	.	.	.	.
8d#X\	.	.	.	.
8f#\	.	4b\)	]]	.
8a\J)	.	.	.	.
=131	=131	=131	=131	=131
*^	*	*	*	*
*	*xywh-#11:365,449,2354,608	*	*	*	*
!	!	!	!LO:TX:a:i:t=a tempo	!	!
4rg>	2E\	.	(>[>2.bb/	p	.
!LO:TX:t=P:problem=mixed beam	!	!	!	!	!
(8ee>\L	.	.	.	.	.
8b>\	.	.	.	.	.
8g/	4ryy	.	.	.	.
8B/J)	.	.	.	.	.
=132	=132	=132	=132	=132	=132
!LO:TX:t=P:problem=mixed beam	!	!	!	!	!
(8dd#X>\L	4BB/	.	2bb/]	.	.
8b>\	.	.	.	.	.
8g/	2ryy	.	.	.	.
8B/J)	.	.	.	.	.
4r	.	.	8gg/L	.	.
.	.	.	8aa/J)	.	.
!!linebreak:original
=133	=133	=133	=133	=133	=133
*xywh-#11:365,1066,2359,557	*xywh-#11:365,1066,2359,557	*	*xywh-#11:365,1066,2359,557	*	*
4rb>	2E\	.	([>2.bb/	.	.
!LO:TX:t=P:problem=mixed beam	!	!	!	!	!
(8ee>\L	.	.	.	.	.
8b>\	.	.	.	.	.
8g/	4ryy	.	.	.	.
8B/J)	.	.	.	.	.
=134	=134	=134	=134	=134	=134
!LO:TX:t=P:problem=mixed beam	!	!	!	!	!
(8dd#X>\L	4BB/	.	2bb/]	.	.
8b>\	.	.	.	.	.
8g/	2ryy	.	.	.	.
8B/J)	.	.	.	.	.
4r	.	.	8gg/L	.	.
.	.	.	8aa/J)	.	.
=135	=135	=135	=135	=135	=135
8rb>	4.E\	.	(>2bb/	.	.
!LO:TX:t=P:problem=mixed beam	!	!	!	!	!
(8ee>\L	.	.	.	.	.
8b>\	.	.	.	.	.
8g/	4.ryy	.	.	.	.
8e/	.	.	4eee/	.	.
8B/J)	.	.	.	.	.
=136	=136	=136	=136	=136	=136
8rb>	4.A\	.	2ccc/	.	.
!LO:TX:t=P:problem=mixed beam	!	!	!	!	!
(8aa>\L	.	.	.	.	.
8ee>\	.	.	.	.	.
*clefG2	*	*	*	*	*
8cc/	4.ryy	.	.	.	.
8a/	.	.	4ggg/)	.	.
8e/J)	.	.	.	.	.
*clefF4	*	*	*	*	*
=137	=137	=137	=137	=137	=137
8rb>	4.E\	.	(>2eee/	.	.
!LO:TX:t=P:problem=mixed beam	!	!	!	!	!
(8gg>\L	.	.	.	.	.
8ee>\	.	.	.	.	.
8g/	4.ryy	.	.	.	.
8e/	.	.	4bb/	.	.
8B/J)	.	.	.	.	.
!!linebreak:original
=138	=138	=138	=138	=138	=138
*xywh-#11:377,1681,2360,597	*xywh-#11:377,1681,2360,597	*	*xywh-#11:377,1681,2360,597	*	*
8rb>	4.A\	.	2ccc/	.	.
!LO:TX:t=P:problem=mixed beam	!	!	!	!	!
(8aa>\L	.	.	.	.	.
8ee>\	.	.	.	.	.
*clefG2	*	*	*	*	*
8cc/	4.ryy	.	.	.	.
8a/	.	.	4ggg/)	.	.
8e/J)	.	.	.	.	.
*v	*v	*	*	*	*
=139	=139	=139	=139	=139
8rb>	.	(>2fff#/	.	.
!LO:TX:t=P:problem=mixed beam	!	!	!	!
(>8ccc>\L	.	.	.	.
8ff#>\	.	.	.	.
8cc/	.	.	.	.
8f#/	.	4eee/	.	.
8e/J)	.	.	.	.
=140	=140	=140	=140	=140
*^	*	*	*	*
*	*	*	*	*xywh-#11:377,1681,2360,597	*
!	!	!	!	!LO:HP:a	!
8rb>	4.A/	.	2ddd#X/	<	.
!LO:TX:t=P:problem=mixed beam	!	!	!	!	!
8ccc>\L	.	.	.	.	.
8ff#>\	.	.	.	.	.
8cc/	4.ryy	.	.	.	.
8f#/	.	.	4eee/	.	.
8e/J	.	.	.	[[	.
=141	=141	=141	=141	=141	=141
!	!	!	!	!LO:HP:a	!
8rb>	4.A/	.	2fffn/	>	.
!LO:TX:t=P:problem=mixed beam	!	!	!	!	!
8ccc>\L	.	.	.	.	.
8ffn>\	.	.	.	.	.
8e/	4.ryy	.	.	.	.
8fn/	.	.	4eee/	]]	.
8cc/J	.	.	.	.	.
=142	=142	=142	=142	=142	=142
8rb>	4.dd\	.	[>2.dddn/)	.	.
!LO:TX:t=P:problem=mixed beam	!	!	!	!	!
(8ccc>\L	.	.	.	.	.
8ffn>\	.	.	.	.	.
8cc/	4.ryy	.	.	.	.
8fn/	.	.	.	.	.
8e/J)	.	.	.	.	.
!!linebreak:original
=143	=143	=143	=143	=143	=143
*xywh-#11:366,2322,2377,652	*xywh-#11:366,2322,2377,652	*	*xywh-#11:366,2322,2377,652	*xywh-#11:366,2322,2377,652	*
*ped	*	*	*	*	*
8rb>	4.A-X/	.	(>2ddd/]	.	.
!LO:TX:t=P:problem=mixed beam	!	!	!	!LO:HP:t=cresc. molto	!
(8ccc>\L	.	.	.	<	.
8ffn>\	.	.	.	.	.
8e/	4.ryy	.	.	.	.
8fn/	.	.	4eee/	.	.
8cc/J)	.	.	.	.	.
=144	=144	=144	=144	=144	=144
8rb>	4.dd\	.	2ddd/	.	.
!LO:TX:t=P:problem=mixed beam	!	!	!	!	!
(8ccc>\L	.	.	.	.	.
8ffn>\	.	.	.	.	.
8cc/	4.ryy	.	.	.	.
8fn/	.	.	4eee/)	.	.
8e/J)	.	.	.	.	.
*Xped	*	*	*	*	*
=145	=145	=145	=145	=145	=145
*ped	*	*	*	*	*
8rb>	4.G/	.	(>2fffn/	.	.
!LO:TX:t=P:problem=mixed beam	!	!	!	!	!
(8bb>\L	.	.	.	.	.
8ffn>\	.	.	.	.	.
8d/	4.ryy	.	.	.	.
8fn/	.	.	4eee/	.	.
8b/J)	.	.	.	.	.
=146	=146	=146	=146	=146	=146
8rb>	4.dd\	.	2ddd/	.	.
!LO:TX:t=P:problem=mixed beam	!	!	!	!	!
8bb>\L	.	.	.	.	.
8ffn>\	.	.	.	.	.
8b/	4.ryy	.	.	.	.
8fn/	.	.	4ggg 4gg/)	.	.
8d/J	.	.	.	.	.
*v	*v	*	*	*	*
*Xped	*	*	*	*
*clefF4	*	*	*	*
=147	=147	=147	=147	=147
(8CC/L	.	(2ggg 2eee 2gg\	f	.
8C/	.	.	.	.
8G/	.	.	.	.
8c/J	.	.	.	.
4e'\)	.	4gg 4g\)	.	.
!!linebreak:original
=148	=148	=148	=148	=148
*xywh-#11:394,2969,2338,635	*	*xywh-#11:394,2969,2338,635	*	*
2.fn 2.B 2.G^\	.	(2aa 2ffn 2a\	.	.
.	.	4eee 4ee\)	.	.
=149	=149	=149	=149	=149
(8CC/L	.	(2ccc 2ee 2cc\	.	.
8C/	.	.	.	.
8G/	.	.	.	.
8c/J	.	.	.	.
4e'\)	.	4gg 4g\)	.	.
=150	=150	=150	=150	=150
2.fn 2.B 2.G^\	.	(2aa 2ffn 2a\	.	.
.	.	4eee 4ee\)	.	.
=151	=151	=151	=151	=151
(8CC/L	.	(2bb 2ee 2cc\	.	.
8C/	.	.	.	.
8G/	.	.	.	.
8c/J	.	.	.	.
4e'\)	.	4gg 4g\)	.	.
=152	=152	=152	=152	=152
2.e 2.c 2.B-X 2.G^\	.	4.eee 4.ccc 4.ee\	<	.
.	.	8fffn 8ddd 8ffn\	.	.
.	.	4ggg 4eee 4gg'\	[[	.
=153	=153	=153	=153	=153
!LO:TX:t=P:problem=mixed beam	!	!	!LO:HP:b=2	!
N(>8FFFn/L	.	2.aaa 2.fffn 2.aa\	<	.
!LO:SIC:v:o=8FF#/	!	!	!	!
8FFn/	.	.	.	.
8C/	.	.	.	.
8Fn/	.	.	.	.
8A/	.	.	.	.
8c>\J	.	.	.	.
=154	=154	=154	=154	=154
2.ryy	.	8fn\L	.	.
.	.	8a\	.	.
.	.	8cc\	.	.
.	.	8ffn\	.	.
.	.	8aa\	.	.
.	.	8ccc\JN)	[[	.
!!pagebreak:original
=155||	=155||	=155||	=155||	=155||
*xywh-#12:484,494,2383,579	*	*xywh-#12:484,494,2383,579	*	*
*k[b-]	*	*k[b-]	*	*
(8FF\L	.	4r	.	.
8F\	.	.	.	.
8c\	.	4r	.	.
8f\J	.	.	.	.
4a'\)	.	4ccc 4cc\	.	.
*clefG2	*	*	*	*
=156	=156	=156	=156	=156
2.a 2.f 2.d 2.B-^/	.	(2ddd 2bb- 2dd\	.	.
.	.	4aaa 4aa\)	.	.
*clefF4	*	*	*	*
=157	=157	=157	=157	=157
(8FF\L	.	(2fff 2aa 2ff\	.	.
8F\	.	.	.	.
8c\	.	.	.	.
8f\J	.	.	.	.
4a'\)	.	4ccc 4cc\)	.	.
*clefG2	*	*	*	*
=158	=158	=158	=158	=158
2.a 2.f 2.d 2.B-^/	.	(2ddd 2bb- 2dd\	.	.
.	.	4aaa 4aa\)	.	.
*clefF4	*	*	*	*
=159	=159	=159	=159	=159
(8FF\L	.	(2fff 2aa 2ff\	.	.
8F\	.	.	.	.
8c\	.	.	.	.
8f\J	.	.	.	.
4a'\)	.	4ccc 4cc\)	.	.
*clefG2	*	*	*	*
=160	=160	=160	=160	=160
*	*	*8va	*	*
2.a 2.f 2.e-X 2.c/	.	4.aaa 4.fff 4.aa\	<	.
.	.	8bbb- 8bb-\	.	.
.	.	4cccc 4ccc\	[	.
*clefF4	*	*	*	*
!!linebreak:original
=161	=161	=161	=161	=161
*xywh-#12:484,1139,2401,570	*	*xywh-#12:484,1139,2401,570	*	*
!LO:TX:t=P:problem=mixed beam	!	!	!LO:HP:b=2	!
N(>8BBB-/L	.	2.dddd 2.bbb- 2.ddd\	<	.
8BB-/	.	.	.	.
8F/	.	.	.	.
8B-/	.	.	.	.
8d>\	.	.	.	.
8f>\J	.	.	.	.
*	*	*X8va	*	*
=162	=162	=162	=162	=162
2.ryy	.	8b-\L	.	.
.	.	8dd\	.	.
.	.	8ff\	.	.
.	.	8bb-\J	.	.
.	.	4ddd\N)	[	.
=163	=163	=163	=163	=163
(8BBB-/L	.	4r	ff	.
8BB-/	.	.	.	.
8F/	.	4r	.	.
8B-/J	.	.	.	.
4d'\)	.	4fff 4ff\	.	.
*clefG2	*	*	*	*
=164	=164	=164	=164	=164
*	*	*8va	*	*
*^	*	*	*	*
*	*xywh-#12:484,1139,2401,570	*	*	*	*
2g^/	2.e-X 2.c 2.A\	.	(2ggg 2eee-X 2gg\	.	.
4f#X/	.	.	4eeee-X 4eee-\)	.	.
*v	*v	*	*	*	*
*clefF4	*	*	*	*
=165	=165	=165	=165	=165
(8BBB-/L	.	(2dddd 2bbb- 2ddd\	.	.
8BB-/	.	.	.	.
8Fn/	.	.	.	.
8B-/J	.	.	.	.
4d'\)	.	4fff 4ff\)	.	.
*	*	*X8va	*	*
!!linebreak:original
*clefG2	*	*	*	*
=166	=166	=166	=166	=166
*xywh-#12:466,1788,2411,584	*	*xywh-#12:466,1788,2411,584	*xywh-#12:466,1788,2411,584	*
*	*	*8va	*	*
2g 2e-X 2c 2A^>/	.	(2ggg 2eee-X 2gg\	.	.
4f#X/	.	4eeee-X 4eee-\)	.	.
*clefF4	*	*	*	*
=167	=167	=167	=167	=167
(8BBB-/L	.	(2dddd 2bbb-X 2ddd\	.	.
8BB-/	.	.	.	.
8F/	.	.	.	.
8B-/J	.	.	.	.
4d'\)	.	4fff 4ff\)	.	.
=168	=168	=168	=168	=168
2.f 2.d 2.B- 2.F\	.	4.ffff 4.dddd 4.fff^\	.	.
.	.	8eeeen 8cccc 8eeen\	.	.
.	.	4dddd 4bbb- 4ddd\	.	.
=169	=169	=169	=169	=169
(8GGG/L	.	2.dddd 2.bbb- 2.ddd\	.	.
8GG/	.	.	.	.
8F/	.	.	.	.
8B-/J	.	.	.	.
4d'\)	.	.	.	.
*	*	*X8va	*	*
=170	=170	=170	=170	=170
2.f 2.d 2.B- 2.G\	.	4.fff 4.ddd 4.ff^\	.	.
.	.	8eee 8ccc 8ee\	.	.
.	.	4ddd 4bb- 4dd\	.	.
=171	=171	=171	=171	=171
8r	.	(2ddd 2bb- 2dd\	.	.
(8f\	.	.	.	.
4B- 4G\)	.	.	.	.
4C 4CC'/	.	4bbb- 4bb-\)	.	.
!!linebreak:original
=172	=172	=172	=172	=172
*xywh-#12:466,2400,2439,630	*	*xywh-#12:466,2400,2439,630	*	*
8r	.	(2ddd-X 2bb- 2dd-X\	.	.
(8f\	.	.	.	.
4B- 4G'\)	.	.	.	.
4C 4CC'/	.	4bbb- 4bb-\)	.	.
=173	=173	=173	=173	=173
8r	.	(2ccc 2bb- 2cc\	.	.
(8e\	.	.	.	.
4B- 4G'\)	.	.	.	.
4C 4CC'/	.	[4bbb- [4bb-\)	.	.
=174	=174	=174	=174	=174
4e 4B- 4G'\	.	4bbb-] 4bb-\]	.	.
4r	.	4aaa 4aa\	.	.
4r	.	4ggg 4gg\	.	.
=175	=175	=175	=175	=175
!	!	!LO:TX:t=P:problem=mixed beam	!	!
4C 4CC/	.	(8fffL 8ddd^\	.	.
.	.	8ccc\	.	.
4r	.	8fff 8ddd\	.	.
.	.	8ccc\	.	.
*clefG2	*	*	*	*
4ryy	.	8aa</	.	.
.	.	8ff</J)	.	.
=176	=176	=176	=176	=176
!	!	!LO:TX:t=P:problem=mixed beam	!	!
2.ryy	.	(8ffL 8dd\	.	.
.	.	8cc\	.	.
!	!	!	!LO:HP:a	!
.	.	8ff 8dd\	>	.
.	.	8cc\	.	.
.	.	8a</	.	.
.	.	8f</J)	.	.
!!linebreak:original
=177	=177	=177	=177	=177
*xywh-#12:447,3114,2439,551	*	*xywh-#12:447,3114,2439,551	*	*
!	!	!LO:TX:t=P:problem=mixed beam	!	!
2ryy	.	(8fL 8d\	.	.
.	.	8c\	.	.
.	.	8f 8d\	.	.
.	.	8c\	.	.
*clefF4	*	*	*	*
4ryy	.	8A</	.	.
.	.	8F</J)	.	.
=178	=178	=178	=178	=178
!	!	!LO:TX:t=P:łuk:problem	!	!
4rEE	.	(8F<L 8D</	.	.
.	.	8C</	.	.
4rEE	.	8F< 8D</	.	.
.	.	8C</J	.	.
8AA\L	.	4r	]]	.
8FF\J)	.	.	.	.
=179	=179	=179	=179	=179
*	*	*^	*	*
*	*	*	*xywh-#12:447,3114,2439,551	*	*
4r	.	(2d/	4r	mf	.
4C'/	.	.	4B- 4F\	.	.
4CC'/	.	4b-/)	4r	.	.
=180	=180	=180	=180	=180	=180
4r	.	(2d-X/	4r	>	.
4C'/	.	.	4B- 4F\	.	.
4CC'/	.	4b-/)	4r	.	.
=181	=181	=181	=181	=181	=181
4r	.	(2c/	4r	.	.
4C'/	.	.	4B- 4E\	.	.
4CC'/	.	[4b-/	4r	.	.
*	*	*v	*v	*	*
=182	=182	=182	=182	=182
4C'/	.	4b-/]	.	.
4r	.	4a/	.	.
4r	.	4g/)	]]	.
!!pagebreak:original
=183	=183	=183	=183	=183
*xywh-#13:385,421,2382,562	*	*xywh-#13:385,421,2382,562	*xywh-#13:385,421,2382,562	*
*^	*	*	*	*
*	*xywh-#13:385,421,2382,562	*	*	*	*
(2.d-X/	4r	.	(8f/L	p	.
.	.	.	8g/	.	.
.	4F 4BB-\	.	8f/	.	.
.	.	.	8g/	.	.
.	4F 4BB-\	.	8a/	.	.
.	.	.	8b-/J	.	.
=184	=184	=184	=184	=184	=184
2.A/)	4r	.	8cc\L	.	.
.	.	.	8ddn\	.	.
.	4C 4FF\	.	8cc\	.	.
.	.	.	8dd\	.	.
.	4C 4FF\	.	8ee\	.	.
.	.	.	8ff\J	.	.
=185	=185	=185	=185	=185	=185
(2.d-X/	4r	.	8ff\L	.	.
.	.	.	8gg\	.	.
.	4F 4BB-\	.	8ff\	.	.
.	.	.	8gg\	.	.
.	4F 4BB-\	.	8aa\	.	.
.	.	.	8bb-\J	.	.
=186	=186	=186	=186	=186	=186
2.A/)	4r	.	8ccc\L	.	.
.	.	.	8ddd\	.	.
.	4C 4FF\	.	8ccc\	.	.
.	.	.	8ddd\	.	.
.	4C 4FF\	.	8eee\	.	.
.	.	.	8fff\J)	.	.
*v	*v	*	*	*	*
=187	=187	=187	=187	=187
*	*	*8va	*	*
*^	*	*	*	*
*	*xywh-#13:385,421,2382,562	*	*	*	*
(2.d-X/	4r	.	(8fff\L	.	.
.	.	.	8ggg\	.	.
.	4F 4BB-\	.	8fff\	.	.
.	.	.	8ggg\	.	.
.	4F 4BB-\	.	8aaa\	.	.
.	.	.	8bbb-\J	.	.
!!linebreak:original
=188	=188	=188	=188	=188	=188
*xywh-#13:394,1015,2391,608	*xywh-#13:394,1015,2391,608	*	*xywh-#13:394,1015,2391,608	*	*
2.A/)	4r	.	8cccc\L	.	.
.	.	.	8dddd\	>	.
.	4C 4FF\	.	8cccc\	.	.
.	.	.	8dddd\	.	.
.	4C 4FF\	.	8eeee\	.	.
.	.	.	8ffff\J	.	.
=189	=189	=189	=189	=189	=189
2.A/	4r	.	8cccc\L	.	.
.	.	.	8dddd\	.	.
.	4C 4FF\	.	8cccc\	.	.
.	.	.	8dddd\	.	.
.	4C 4FF\	.	8eeee\	.	.
.	.	.	8ffff\J	]]	.
=190	=190	=190	=190	=190	=190
2.A/	4r	.	8cccc\L	.	.
.	.	.	8dddd\	.	.
.	4C 4FF\	.	8cccc\	.	.
.	.	.	8dddd\	.	.
.	4C 4FF\	.	8eeee\	.	.
.	.	.	8ffff\J)	.	.
*v	*v	*	*	*	*
*	*	*X8va	*	*
=191	=191	=191	=191	=191
[>2.A/	.	2.r	.	.
=192	=192	=192	=192	=192
2.A/]	.	2.r	.	.
=193	=193	=193	=193	=193
2.r	.	[2.c/	.	.
=194	=194	=194	=194	=194
2.r	.	2.c/]	.	.
!!linebreak:original
=195||	=195||	=195||	=195||	=195||
*xywh-#13:399,1748,2359,493	*	*xywh-#13:399,1748,2359,493	*	*
*k[]	*	*k[]	*	*
!	!	!LO:TX:b:i:t=espressivo	!	!
4r	.	(2e/	.	.
4E 4AA/	.	.	.	.
4E 4AA/	.	4cc\)	.	.
=196	=196	=196	=196	=196
4r	.	(2d#X/	.	.
4F#X 4AA/	.	.	.	.
4F# 4AA/	.	4cc\)	.	.
=197	=197	=197	=197	=197
4r	.	(2dn/	.	.
4G#X 4E 4AA\	.	.	.	.
4G# 4E 4AA\	.	[4cc\	.	.
=198	=198	=198	=198	=198
4r	.	4cc\]	.	.
4G#X 4E 4AA\	.	4b\	.	.
4G# 4E 4AA\	.	4g#X/)	.	.
=199	=199	=199	=199	=199
*^	*	*	*	*
*	*xywh-#13:399,1748,2359,493	*	*	*	*
(2.f/	4r	.	(8g#X/L	.	.
.	.	.	8a/	.	.
.	4A 4D\	.	8g#/	.	.
.	.	.	8a/	.	.
.	4A 4D\	.	8b/	.	.
.	.	.	8cc/J	.	.
=200	=200	=200	=200	=200	=200
2.c/)	4r	.	8ee\L	.	.
.	.	.	8ff#X\	.	.
.	4E 4AA\	.	8ee\	.	.
.	.	.	8ff#\	.	.
.	4E 4AA\	.	8gg#X\	.	.
.	.	.	8aa\J)	.	.
!!linebreak:original
=201	=201	=201	=201	=201	=201
*xywh-#13:413,2268,2345,645	*xywh-#13:413,2268,2345,645	*	*xywh-#13:413,2268,2345,645	*	*
(2.f/	4r	.	(8gg#X\L	.	.
.	.	.	8aa\	.	.
.	4A 4D\	.	8gg#\	.	.
.	.	.	8aa\	.	.
.	4A 4D\	.	8bb\	.	.
.	.	.	8ccc\J	.	.
=202	=202	=202	=202	=202	=202
2.c/)	4r	.	8eee\L	.	.
.	.	.	8fff#X\	.	.
.	4E 4AA\	.	8eee\	.	.
.	.	.	8fff#\	.	.
.	4E 4AA\	.	8ggg#X\	.	.
.	.	.	8aaa\J)	.	.
*v	*v	*	*	*	*
=203	=203	=203	=203	=203
*	*	*8va	*	*
*^	*	*	*	*
*	*xywh-#13:413,2268,2345,645	*	*	*	*
(2.f/	4r	.	(8ggg#X\L	.	.
.	.	.	8aaa\	.	.
.	4A 4D\	.	8ggg#\	.	.
.	.	.	8aaa\	.	.
.	4A 4D\	.	8bbb\	.	.
.	.	.	8cccc\J	.	.
=204	=204	=204	=204	=204	=204
2.c/)	4r	.	8eeee\L	.	.
.	.	.	8ffff#X\	.	.
.	4E 4AA\	.	8eeee\	.	.
.	.	.	8ffff#\	.	.
.	4E 4AA\	.	8gggg#X\	.	.
.	.	.	8aaaa\J	.	.
!!linebreak:original
=205	=205	=205	=205	=205	=205
*xywh-#13:426,2960,2331,598	*xywh-#13:426,2960,2331,598	*	*xywh-#13:426,2960,2331,598	*	*
2.c/	4r	.	8eeee\L	>	.
.	.	.	8ffff#X\	.	.
.	4E 4AA\	.	8eeee\	.	.
.	.	.	8ffff#\	.	.
.	4E 4AA\	.	8gggg#X\	.	.
.	.	.	8aaaa\J	.	.
=206	=206	=206	=206	=206	=206
2.c/	4r	.	8eeee\L	.	.
.	.	.	8ffff#X\	.	.
.	4E 4AA\	.	8eeee\	.	.
.	.	.	8ffff#\	.	.
.	4E 4AA\	.	8gggg#X\	.	.
.	.	.	8aaaa\J)	]]	.
*v	*v	*	*	*	*
*	*	*X8va	*	*
=207	=207	=207	=207	=207
[>2.c/	.	2.r	.	.
=208	=208	=208	=208	=208
2.c/]	.	2.r	.	.
=209	=209	=209	=209	=209
2.r	.	[2.c/	.	.
=210	=210	=210	=210	=210
2.r	.	2.c/]	.	.
!!pagebreak:original
*xywh-#14:477,466,2385,496	*	*xywh-#14:477,466,2385,496	*xywh-#14:477,466,2385,496	*
=211	=211	=211	=211	=211
!	!	!LO:TX:t=P:problem=text with extension lines	!	!
!	!	!LO:TX:a:i:t=poco rit.	!	!
4r	.	(2c/	mf	.
4C 4FF/	.	.	.	.
4C 4FF/	.	4a-X/)	.	.
=212	=212	=212	=212	=212
4r	.	(2Bn/	.	.
4D 4FF/	.	.	.	.
4D 4FF/	.	4a-X/)	.	.
=213	=213	=213	=213	=213
4r	.	(2B-X/	.	.
4En 4D-X 4FF/	.	.	.	.
4E 4D- 4FF/	.	[4a-X/	.	.
=214	=214	=214	=214	=214
!	!	!	!LO:HP:a	!
4r	.	4a-/]	>	.
4E 4D-X 4FF/	.	4g/	.	.
4E 4D- 4FF/	.	4en/)	]	.
=215	=215	=215	=215	=215
*^	*	*	*	*
*	*xywh-#14:477,466,2385,496	*	*	*	*
!	!	!	!LO:TX:a:i:t=a tempo	!	!
(2.d-X/	4r	.	(8en/L	p	.
.	.	.	8f/	.	.
.	4F 4BB-X\	.	8e/	.	.
.	.	.	8f/	.	.
.	4F 4BB-\	.	8g/	.	.
.	.	.	8a-X/J	.	.
=216	=216	=216	=216	=216	=216
2.A-X/)	4r	.	8a-X/L	.	.
.	.	.	8b-X/	.	.
.	4C 4FF\	.	8a-/	.	.
.	.	.	8b-/	.	.
.	4C 4FF\	.	8cc/	.	.
.	.	.	8dd-X/J)	.	.
=217	=217	=217	=217	=217	=217
(2.d-X/	4r	.	(8ee\L	.	.
.	.	.	8ff\	.	.
.	4F 4BB-X\	.	8ee\	.	.
.	.	.	8ff\	.	.
.	4F 4BB-\	.	8gg\	.	.
.	.	.	8aa-X\J	.	.
!!linebreak:original
=218	=218	=218	=218	=218	=218
*xywh-#14:487,995,2385,612	*xywh-#14:487,995,2385,612	*	*xywh-#14:487,995,2385,612	*	*
!LO:TX:t=P:problem=brak zakończenia łuku	!	!	!	!	!
2.A-X/)	4r	.	8aa-X\L	.	.
.	.	.	8bb-X\	.	.
.	4C 4FF\	.	8aa-\	.	.
.	.	.	8bb-\	.	.
.	4C 4FF\	.	8ccc\	.	.
.	.	.	8ddd-X\J)	.	.
=219	=219	=219	=219	=219	=219
2.d-X/	4r	.	(8eeen\L	.	.
.	.	.	8fff\	.	.
.	4F 4BB-X\	.	8eee\	.	.
.	.	.	8fff\	.	.
.	4F 4BB-\	.	8ggg\	.	.
.	.	.	8aaa-X\J	.	.
*v	*v	*	*	*	*
=220	=220	=220	=220	=220
*ped	*	*8va	*	*
*^	*	*	*	*
*	*xywh-#14:487,995,2385,612	*	*	*	*
2.d-X/	4r	.	8aaa-X\L	.	.
.	.	.	8bbb-X\	.	.
.	4F 4AA-X\	.	8aaa-\	.	.
.	.	.	8bbb-\	.	.
.	4F 4AA-\	.	8cccc\	.	.
.	.	.	8dddd-X\J	.	.
*v	*v	*	*	*	*
=221	=221	=221	=221	=221
2.r	.	8aaa-X\L	.	.
.	.	8bbb-X\	.	.
.	.	8aaa-\	.	.
.	.	8bbb-\	.	.
.	.	8cccc\	.	.
.	.	8dddd-X\J	.	.
*clefG2	*	*X8va	*	*
=222	=222	=222	=222	=222
!	!	!LO:TX:b:i:t=poco rit.	!	!
!	!	!LO:TX:t=P:problem=mixed beam	!	!
2.ryy	.	8aa-X</L	.	.
.	.	8bb-<X/	.	.
.	.	8aa<-/	.	.
.	.	8bb-</	.	.
.	.	8ccc\	.	.
.	.	8ddd-X\J)	.	.
!!linebreak:original
=223	=223	=223	=223	=223
*xywh-#14:477,1645,2413,561	*	*xywh-#14:477,1645,2413,561	*	*
!	!	!LO:TX:a:t=Tempo I. (Allegro moderato.)	!	!
4r	.	(4.aa-X\	mf	.
4a-X 4f/	.	.	.	.
.	.	8dd-X\L	<	.
.	.	8qee-X/	.	.
[4a- [4f/	.	8dd-\	.	.
.	.	8cc\J	.	.
=224	=224	=224	=224	=224
4a-] 4f/]	.	8dd-X\L	.	.
.	.	8ee-X\	.	.
4a-X 4f/	.	8cc\	.	.
.	.	8ee-\	.	.
[4a- [4f/	.	8dd-\	.	.
.	.	8bb-X\J)	[	.
=225	=225	=225	=225	=225
4a-] 4f/]	.	(2bb-X\	>	.
4a-X 4f/	.	.	.	.
*Xped	*	*	*	*
.	.	.	.	.
[4a- [4f/	.	4dd-X\)	]	.
=226	=226	=226	=226	=226
4a-] 4f/]	.	(2bb-X\	>	.
4a-X 4f-X/	.	.	.	.
[4a- [4f-/	.	4dd-X\)	]	.
=227	=227	=227	=227	=227
4a-] 4f-/]	.	(4.bb-X\	<	.
4a-X 4g-X 4e-X/	.	.	.	.
.	.	8cc\L	.	.
.	.	8qdd-X/	.	.
[4a- [4g- [4e-/	.	8cc\	.	.
.	.	8bn\J	.	.
=228	=228	=228	=228	=228
4a-] 4g-] 4e-/]	.	8cc\L	.	.
.	.	8dd-X\	.	.
4a-X 4g-X 4e-X/	.	8bn\	.	.
.	.	8dd-\	.	.
[4a- [4g- [4e-/	.	8cc\	.	.
.	.	8bb-X\J)	[	.
!!linebreak:original
=229	=229	=229	=229	=229
*xywh-#14:487,2332,2404,529	*	*xywh-#14:487,2332,2404,529	*	*
4a-] 4g-] 4e-/]	.	(2bb-X\	.	.
4a-X 4g-X 4e-X/	.	.	.	.
[4a- [4g- [4e-/	.	4cc-X\)	.	.
=230	=230	=230	=230	=230
4a-] 4g-] 4e-/]	.	(2bbn\	.	.
4g#X 4f#X 4d/	.	.	.	.
4g# 4f# 4d/	.	4bn\)	.	.
=231||	=231||	=231||	=231||	=231||
*k[f#c#g#]	*	*k[f#c#g#]	*	*
4r	.	(4.bb\	.	.
4f# 4d 4B/	.	.	.	.
.	.	8b/L	<	.
.	.	8qcc#/	.	.
4f# 4d 4B/	.	8b/	.	.
.	.	8a#X/J	.	.
=232	=232	=232	=232	=232
4r	.	8b\L	.	.
.	.	8cc#\	.	.
4f# 4d 4B/	.	8a#X\	.	.
.	.	8cc#\	.	.
4f# 4d 4B/	.	8b\	.	.
.	.	8bb\J)	.	.
=233	=233	=233	=233	=233
4r	.	(2bb\	.	.
4f# 4d 4A/	.	.	.	.
4f# 4d 4A/	.	4b\)	[	.
*clefF4	*	*	*	*
=234	=234	=234	=234	=234
!	!	!LO:TX:b:i:t=rit.	!	!
4r	.	(2bb\	.	.
4f# 4d 4G#\	.	.	>	.
4f# 4d 4F#\	.	4b\)	]]	.
!!linebreak:original
=235	=235	=235	=235	=235
*xywh-#14:477,2898,2450,649	*	*xywh-#14:477,2898,2450,649	*	*
!	!	!LO:TX:a:i:t=a tempo	!	!
4E 4EE/	.	4.bb\	p <	.
(4d 4E\	.	.	.	.
!	!	!LO:TX:a:i:t=poco a poco animando	!	!
.	.	(8b/L	.	.
.	.	8qcc#/	.	.
4f# 4B\	.	8b/	.	.
.	.	8a#X/J	.	.
=236	=236	=236	=236	=236
4an 4d\)	.	8b\L	.	.
.	.	8bb\	.	.
4r	.	8dd\	.	.
.	.	8ddd\	.	.
4r	.	8ff#\	.	.
.	.	8fff#\J)	[[	.
=237	=237	=237	=237	=237
4E 4EE/	.	(8aa\L	.	.
.	.	8aaa\	>	.
(4d 4E\	.	8fff#\	.	.
.	.	8ddd\	.	.
4f# 4B\	.	8aa\	.	.
.	.	8ff#\J)	.	.
=238	=238	=238	=238	=238
4a 4c#\)	.	(8eee\L	.	.
.	.	8ccc#\	.	.
4r	.	8aa\	.	.
.	.	8ee\	.	.
4r	.	8cc#\	.	.
.	.	8a\J)	]	.
=239	=239	=239	=239	=239
4E 4EE/	.	(4.bb\	<	.
(4d 4E\	.	.	.	.
.	.	8b/L	.	.
.	.	8qcc#/	.	.
4f# 4B\	.	8b/	.	.
.	.	8a#X/J	.	.
=240	=240	=240	=240	=240
4an 4d\)	.	8b\L	.	.
.	.	8bb\	.	.
4r	.	8dd\	.	.
.	.	8ddd\	.	.
4r	.	8ff#\	.	.
.	.	8fff#\J)	[	.
!!pagebreak:original
=241	=241	=241	=241	=241
*xywh-#15:312,411,2382,548	*	*xywh-#15:312,411,2382,548	*	*
4E 4EE/	.	(8aa\L	>	.
.	.	8aaa\	.	.
(4d 4E\	.	8fff#\	.	.
.	.	8ddd\	.	.
4f# 4B\	.	8aa\	.	.
.	.	8ff#\J)	.	.
=242	=242	=242	=242	=242
4a 4c#\)	.	(8eee\L	.	.
.	.	8ccc#\	.	.
4r	.	8aa\	.	.
.	.	8ee\	.	.
4r	.	8cc#\	.	.
.	.	8a\J)	]	.
=243	=243	=243	=243	=243
4E 4EE/	.	(4.bb\	<	.
(4d 4E\	.	.	.	.
.	.	8b/L	.	.
.	.	8qcc#/	.	.
4f# 4B\	.	8b/	.	.
.	.	8a#X/J	.	.
=244	=244	=244	=244	=244
4an 4d\)	.	8b\L	<	.
.	.	8bb\	.	.
4r	.	8dd\	.	.
.	.	8ddd\	.	.
4r	.	8ff#\	.	.
.	.	8fff#\J)	[	.
=245	=245	=245	=245	=245
4E 4EE/	.	(4.fff#\	.	.
(4d 4E\	.	.	.	.
.	.	8ff#\L	.	.
.	.	8qgg#/	.	.
4f# 4B\	.	8ff#\	.	.
.	.	8ee#X\J	.	.
!!linebreak:original
=246	=246	=246	=246	=246
*xywh-#15:321,1010,2363,654	*	*xywh-#15:321,1010,2363,654	*	*
4a 4d\)	.	8ff#\L	<	.
.	.	8fff#\	.	.
4r	.	8aa\	.	.
.	.	8aaa\	.	.
4r	.	8ccc#\	.	.
.	.	8cccc#\J)	[	.
=247	=247	=247	=247	=247
*ped	*	*	*	*
4E 4EE/	.	(4.cccc#\	f <	.
*clefG2	*	*	*	*
(4f# 4A/	.	.	.	.
.	.	8ccc#\L	.	.
.	.	8qeee/	.	.
4a 4d#X/	.	8ddd#X\	.	.
.	.	8ccc#\J	.	.
=248	=248	=248	=248	=248
4cc# 4f#/)	.	8ff#\L	.	.
.	.	8fff#\	.	.
4r	.	8aa\	.	.
.	.	8aaa\	.	.
4r	.	8ccc#\	.	.
.	.	8cccc#\J)	[	.
*clefF4	*	*	*	*
=249	=249	=249	=249	=249
4E 4EE/	.	(4.cccc#\	<	.
*clefG2	*	*	*	*
(4f# 4A/	.	.	.	.
.	.	8ccc#\L	.	.
.	.	8qeee/	.	.
4a 4d#X/	.	8ddd#X\	.	.
.	.	8ccc#\J	.	.
=250	=250	=250	=250	=250
4cc# 4f#/)	.	8ff#\L	.	.
.	.	8fff#\	.	.
4r	.	8aa\	.	.
.	.	8aaa\	.	.
4r	.	8ccc#\	.	.
.	.	8cccc#\J)	[	.
*Xped	*	*	*	*
!!linebreak:original
=251	=251	=251	=251	=251
*xywh-#15:353,1705,2340,589	*	*xywh-#15:353,1705,2340,589	*	*
!LO:TX:b:i:t=con bravura	!	!	!	!
2.ryy	.	8cc#</L	.	.
.	.	8cccc#L 8ccc#\	.	.
.	.	8a</	.	.
.	.	8aaa 8aa\	.	.
.	.	8e#X</J	.	.
.	.	8eee#XJ 8ee#X\	.	.
=252	=252	=252	=252	=252
2.ryy	.	8g#</L	.	.
.	.	8ggg#L 8gg#\	.	.
.	.	8f#</	.	.
.	.	8fff# 8ff#\	.	.
.	.	8cc#<J 8c#</	.	.
.	.	8ccc#\J	.	.
*clefF4	*	*	*	*
=253	=253	=253	=253	=253
2.ryy	.	8a<L 8A</	.	.
.	.	8aa\L	.	.
.	.	8e#X< 8E#X</	.	.
.	.	8ee#X\	.	.
.	.	8g#<J 8G#</	.	.
.	.	8gg#\J	.	.
=254	=254	=254	=254	=254
2.ryy	.	8f#<L 8F#</	.	.
.	.	8ff#\L	.	.
.	.	8c#< 8C#</	.	.
.	.	8cc#\	.	.
.	.	8A<J 8AA</	.	.
.	.	8a\J	.	.
=255	=255	=255	=255	=255
2.ryy	.	8E#X<L 8EE#X</	.	.
.	.	8e#X\L	.	.
.	.	8G#< 8GG#</	.	.
.	.	8g#\	.	.
.	.	8F#<J 8FF#</	.	.
.	.	8f#\J	.	.
!!linebreak:original
=256	=256	=256	=256	=256
*xywh-#15:367,2420,2336,548	*	*xywh-#15:367,2420,2336,548	*	*
8C#\L	.	8ryy	.	.
8ryy	.	8c#</L	.	.
8AA\	.	8ryy	.	.
8ryy	.	8A</	.	.
8EE#X\J	.	8ryy	.	.
8ryy	.	8E#X</J	.	.
=257	=257	=257	=257	=257
8GG#\L	.	8r<	.	.
8r	.	8G#</L	.	.
8FF#\	.	8r<	.	.
8r	.	8F#</	.	.
8CC#\J	.	8r<	.	.
8r	.	8C#</J	.	.
=258	=258	=258	=258	=258
8AAA\L	.	8r<	.	.
8rCC	.	8AA</L	.	.
8CC#\	.	8r<	.	.
8r	.	8C#</	.	.
8FF#\J	.	8r<	.	.
8r	.	8F#</J	.	.
=259	=259	=259	=259	=259
!	!	!LO:TX:b:i:t=agitato	!	!
4r	.	(<8G#<L 8E#X</	.	.
.	.	8A<J 8F#</)	.	.
8r	.	2A< 2F#</	<	.
(>8C#\L	.	.	.	.
8AA\	.	.	.	.
8AAA\J)	.	.	.	.
=260	=260	=260	=260	=260
4r	.	(8B#XL 8G#/	.	.
.	.	8c#J 8A/)	.	.
8r	.	2c# 2A/	.	.
(8F#/L	.	.	.	.
8C#/	.	.	.	.
8AA/J)	.	.	.	.
=261	=261	=261	=261	=261
*	*^	*	*	*
*	*	*	*xywh-#15:367,2420,2336,548	*	*
4r	.	.	(8c##XL 8A#X/	.	.
.	.	.	8d#XJ 8B/)	.	.
8r	.	.	4d# 4B/	.	.
(8A^\L	.	1	.	.	.
8F#\	.	2	(4a 4c#X/	[[	.
8D#X\J	.	3	.	.	.
!!linebreak:original
=262	=262	=262	=262	=262	=262
*xywh-#15:386,3005,2317,488	*	*xywh-#15:386,3005,2317,488	*xywh-#15:386,3005,2317,488	*	*
8C#/L	.	4	2g# 2B/	>	.
8BB/	.	1	.	.	.
8BBB/	.	5	.	.	.
8BB/	.	1	.	.	.
8C#/	.	3	4f# 4A/)	]]	.
8D#X/J)	.	2	.	.	.
=263	=263	=263	=263	=263	=263
4r	.	.	(8A#XL 8F##X/	<	.
.	.	.	8BJ 8G#/)	.	.
8r	.	.	2B 2G#/	.	.
(8Dn/L	.	.	.	.	.
8BB/	.	.	.	.	.
8EE/J)	.	.	.	.	.
=264	=264	=264	=264	=264	=264
4r	.	.	(8c#L 8A#X/	.	.
.	.	.	8dJ 8B'/)	.	.
8r	.	.	2d 2B/	.	.
(8G#/L	.	.	.	.	.
8D/	.	.	.	.	.
8EE/J)	.	.	.	.	.
=265	=265	=265	=265	=265	=265
4r	.	.	(8e#XL 8c#/	.	.
.	.	.	8f#J 8d'/)	.	.
8r	.	.	4f# 4d'/	[	.
(8B\L	.	1	.	.	.
8A\	.	2	4dd 4f#/	>	.
8G#\J	.	3	.	.	.
=266	=266	=266	=266	=266	=266
8F#/L	.	4	(2cc# 2en/	.	.
8E/	.	1	.	.	.
8EE/	.	5	.	.	.
8E/	.	1	.	.	.
8F#/	.	3	4b 4d/)	.	.
8G#/J)	.	2	.	]]	.
*	*v	*v	*	*	*
!!pagebreak:original
=267	=267	=267	=267	=267
*xywh-#16:459,423,2439,505	*	*xywh-#16:459,423,2439,505	*	*
4r	.	(8f#L 8d#X/	<	.
.	.	8gnJ 8e/)	.	.
8r	.	2g 2e/	.	.
(8c#\L	.	.	.	.
8Gn\	.	.	.	.
8AA\J)	.	.	.	.
=268	=268	=268	=268	=268
4r	.	(8a#XL 8f#/	.	.
.	.	8bJ 8gn/)	.	.
8r	.	2b 2g/	.	.
(8e\L	.	.	.	.
8c#\	.	.	.	.
8Gn\J)	.	.	.	.
=269	=269	=269	=269	=269
4r	.	(8b#XL 8gn\	.	.
.	.	8cc#\J)	.	.
8r	.	4cc#\	.	.
(8gn\L	.	.	.	.
8e\	.	4ggn 4cc# 4a 4g\	[	.
8c#\J	.	.	.	.
=270	=270	=270	=270	=270
8B\L	.	2ff# 2cc# 2a 2gn\	>	.
8A\	.	.	.	.
8AA\	.	.	.	.
8A\	.	.	.	.
8B\	.	4ff# 4cc# 4a 4g\	]]	.
8c#\J)	.	.	.	.
!!linebreak:original
=271	=271	=271	=271	=271
*xywh-#16:468,1026,2415,565	*	*xywh-#16:468,1026,2415,565	*	*
4r	.	(8bL 8gn\	.	.
.	.	8ccn\J)	.	.
8r	.	4cc'\	.	.
(8e\L	.	.	.	.
8cn\	.	4ggn 4cc 4g'\	.	.
8A\J	.	.	.	.
=272	=272	=272	=272	=272
*^	*	*	*	*
*	*xywh-#16:468,1026,2415,565	*	*	*	*
!LO:TX:t=P:problem=mixed beam	!	!	!	!LO:HP:a	!
8ccn>\L	8D\)	.	(>4ff# 4ccn/	>	.
8f#>\	8r	.	.	.	.
8gn/	4.ryy	.	4.ryy	.	.
8cn/	.	.	.	.	.
8A/	.	.	.	.	.
8e>\J	8r	.	8ee 8e/)	.	.
*v	*v	*	*	*	*
=273	=273	=273	=273	=273
!LO:TX:t=P:problem=mixed beam	!	!	!	!
8f#>\L	.	(>4dd 4f#/	.	.
8d>\	.	.	.	.
8e/	.	4.ryy	.	.
8A/	.	.	.	.
8F#/	.	.	.	.
8cn>\J	.	8ccn 8cn/)	.	.
=274	=274	=274	=274	=274
!LO:TX:t=P:problem=mixed beam	!	!	!	!
8e>\L	.	(>4b 4e/	.	.
8B>\	.	.	.	.
8cn/	.	4.ryy	.	.
8F#/	.	.	.	.
8D/	.	.	.	.
8A>\J	.	8a 8A/)	.	.
=275	=275	=275	=275	=275
!LO:TX:t=P:problem=mixed beam	!	!	!	!
8cn>\L	.	(>4gn 4cn/	.	.
8Gn>\	.	.	.	.
8F#/	.	4.ryy	.	.
8Cn/	.	.	.	.
8AA/	.	.	.	.
8F#>\J	.	8f# 8F#/)	]]	.
!!linebreak:original
=276	=276	=276	=276	=276
*xywh-#16:473,1740,2392,607	*	*xywh-#16:473,1740,2392,607	*	*
!LO:TX:t=P:problem=mixed beam	!	!	!	!
8cn>\L	.	(>4e#X 4cn/	.	.
8E#X>\	.	.	.	.
8F#/	.	4.ryy	.	.
8Cn/	.	.	.	.
8AA/	.	.	.	.
8F#>\J	.	8f# 8F#/)	.	.
=277	=277	=277	=277	=277
!LO:TX:t=P:problem=mixed beam	!	!	!	!
8cn>\L	.	(>4gn 4cn/	.	.
8Gn>\	.	.	.	.
8F#/	.	4.ryy	.	.
8Cn/	.	.	.	.
8AA/	.	.	.	.
8F#>\J	.	8f# 8F#/)	.	.
=278	=278	=278	=278	=278
!LO:TX:t=P:problem=mixed beam	!	!	!	!
8cn>\L	.	(>4e#X 4cn/	.	.
8E#X>\	.	.	.	.
8F#/	.	4.ryy	.	.
8Cn/	.	.	.	.
8AA/	.	.	.	.
8F#>\J	.	8f# 8F#/)	.	.
=279	=279	=279	=279	=279
*ped	*	*	*	*
2.DD/	.	4r	p	.
.	.	(8G#/L	.	.
.	.	8A/	.	.
.	.	8B/	.	.
.	.	8cn/J	.	.
=280	=280	=280	=280	=280
*	*	*	*	*^
2.D\	.	8e#X/L	.	.	2
.	.	8f#/	.	.	3
.	.	8g#/	.	.	4
.	.	8a/	.	.	1
.	.	8b/	.	.	2
.	.	8ccn/J	.	.	1
*	*	*	*	*v	*v
!!linebreak:original
=281	=281	=281	=281	=281
*xywh-#16:477,2389,2397,519	*	*xywh-#16:477,2389,2397,519	*	*
2.f# 2.cn 2.A\	.	8ee#X\L	.	.
.	.	8ff#\	.	.
.	.	8gg#\	.	.
.	.	8aa\	.	.
.	.	8bb\	.	.
.	.	8cccn\J	.	.
=282	=282	=282	=282	=282
*	*	*8va	*	*
2.r	.	8eee#X\L	.	.
.	.	8fff#\	.	.
.	.	8ggg#\	.	.
.	.	8aaa\	.	.
.	.	8bbb\	.	.
.	.	8ccccn\J	.	.
=283	=283	=283	=283	=283
2.r	.	8eeee#X\L	.	.
.	.	8ffff#\	.	.
.	.	8gggg#\	.	.
.	.	8ffff#\	.	.
.	.	8ffffn\	.	.
.	.	8ccccn\J	.	.
=284	=284	=284	=284	=284
2.r	.	8bbb\L	.	.
.	.	8aaa\	.	.
.	.	8ggg#\	.	.
.	.	8fff#\	.	.
.	.	8fffn\	.	.
.	.	8cccn\J	.	.
*	*	*X8va	*	*
=285	=285	=285	=285	=285
2.r	.	8bb\L	.	.
.	.	8aa\	.	.
.	.	8gg#\	.	.
.	.	8ff#X\	.	.
.	.	8ffn\	.	.
.	.	8ccn\J	.	.
!!linebreak:original
=286	=286	=286	=286	=286
*xywh-#16:477,3033,2397,468	*	*xywh-#16:477,3033,2397,468	*	*
2.r	.	8b/L	.	.
.	.	8a/	.	.
.	.	8g#/	.	.
.	.	8f#/	.	.
.	.	8fn/	.	.
.	.	8cn/J)	.	.
*Xped	*	*	*	*
=287	=287	=287	=287	=287
2.r	.	(8B/L	.	.
.	.	8A/	.	.
.	.	8G#/	.	.
.	.	8A/	.	.
.	.	8B/	.	.
.	.	8cn/J	.	.
=288	=288	=288	=288	=288
2.r	.	8B/L	.	.
.	.	8A/	.	.
.	.	8G#/	.	.
.	.	8A/	.	.
.	.	8B/	.	.
.	.	8cn/J	.	.
=289	=289	=289	=289	=289
2.r	.	8B/L	.	.
.	.	8A/	.	.
.	.	8G#/	.	.
.	.	8A/	.	.
.	.	8B/	.	.
.	.	8cn/J	.	.
=290	=290	=290	=290	=290
2.r	.	8B/L	.	.
!	!	!LO:TX:a:i:t=rit.	!	!
.	.	8A/	.	.
.	.	8G#/	.	.
.	.	8A/	.	.
.	.	8B/	.	.
.	.	8cn/J)	.	.
!!pagebreak:original
=291||	=291||	=291||	=291||	=291||
*k[f#]	*	*k[f#]	*	*
*^	*	*	*	*
*xywh-#17:375,463,2378,534	*xywh-#17:375,463,2378,534	*	*xywh-#17:375,463,2378,534	*	*
!	!	!	!LO:TX:a:B:t=Tempo I.	!	!
4r	[2.GG\	.	(8c#XL 8A#X/	mf <	.
.	.	.	8dJ 8B/)	.	.
4r	.	.	2d 2B/	.	.
(4D/	.	.	.	.	.
=292	=292	=292	=292	=292	=292
4D#X/	2GG\]	.	(8d#XL 8B/	.	.
.	.	.	8eJ 8cn/)	.	.
2E/)	.	.	2e 2c/	.	.
.	[4GG\	.	.	.	.
=293	=293	=293	=293	=293	=293
[2.E-X/	2GG\]	.	(8e#XL 8c/	.	.
.	.	.	8f#/J)	.	.
.	.	.	4f#'/	.	.
.	[4GG\	.	4b'/	[[	.
=294	=294	=294	=294	=294	=294
4E-/]	2.GG\]	.	(2a 2f# 2c/	.	.
4E-X/	.	.	.	.	.
4D/	.	.	4g 4B/)	.	.
*v	*v	*	*	*	*
=295	=295	=295	=295	=295
2CC/	.	(8f#L 8d/	f	.
.	.	8eJ 8c'/)	.	.
.	.	4.ee 4.cc^\	.	.
4c 4G 4E\	.	.	.	.
.	.	8dd 8b\	.	.
=296	=296	=296	=296	=296
2EE/	.	(8ccL 8a\	.	.
.	.	8ddJ 8b\	.	.
.	.	4.ee 4.cc\	.	.
4d 4G#X 4E\	.	.	.	.
.	.	8dd 8b\)	.	.
!!linebreak:original
=297	=297	=297	=297	=297
*xywh-#17:379,1081,2355,451	*	*xywh-#17:379,1081,2355,451	*	*
2AA/	.	(8ccL 8a\	.	.
.	.	8ddJ 8b\)	.	.
.	.	4cc 4a'\	.	.
4c 4E\	.	4b 4g'/	.	.
=298	=298	=298	=298	=298
4C/	.	2a 2f#/	>	.
4d 4A 4F#\	.	.	.	.
4r	.	8b\L	.	.
.	.	8cc\J	]	.
=299	=299	=299	=299	=299
4GG/	.	(4.dd\	.	.
.	.	.	<	.
4d 4F#\	.	.	.	.
.	.	8a-X/L	.	.
[4G\	.	8g/	.	.
.	.	8f#/J	.	.
=300	=300	=300	=300	=300
4G\]	.	4.e#X/	.	.
4d 4G\	.	.	.	.
.	.	8f#/L	.	.
4BB/	.	8g/	.	.
.	.	8dd#X/J)	[	.
=301	=301	=301	=301	=301
4C/	.	(4.ee\	<	.
4e 4G#X\	.	.	.	.
.	.	8b-X/L	.	.
4A\	.	8a/	.	.
.	.	8g#X/J	.	.
=302	=302	=302	=302	=302
(4C#X/	.	4.gn/	.	.
4e 4A'\)	.	.	.	.
.	.	8g#X\L	.	.
4r	.	8a\	.	.
.	.	8ggn\J)	[	.
!!linebreak:original
=303	=303	=303	=303	=303
*xywh-#17:379,1680,2351,585	*	*xywh-#17:379,1680,2351,585	*	*
*ped	*	*	*	*
4DD^>/	.	(4.gg\	f	.
*clefG2	*	*	*	*
(4b 4d/	.	.	.	.
.	.	8ff#\L	.	.
[4b-X [4c#X/	.	8dd\	.	.
.	.	8ff#\J)	.	.
=304	=304	=304	=304	=304
4b-] 4c#/]	.	(4.ff#\	.	.
4a 4cn/	.	.	.	.
.	.	8ee\L	.	.
[4g#X [4Bn/	.	8cc\	.	.
.	.	8ee\J)	.	.
=305	=305	=305	=305	=305
4g#] 4B/]	.	(4.ee\	.	.
4gn 4B-X/	.	.	.	.
.	.	8dd\L	.	.
[4f# [4A/	.	8bn\	.	.
.	.	8dd\J)	.	.
=306	=306	=306	=306	=306
*Xped	*	*	*	*
(4f#] 4A/])	.	(4.dd\	.	.
*clefF4	*	*	*	*
!	!	!LO:TX:a:i:t=rit.	!	!
4e 4G\	.	.	.	.
.	.	8cc\L	.	.
4d 4F#\)	.	8b\	.	.
.	.	8cc\J)	.	.
=307	=307	=307	=307	=307
!	!	!LO:TX:a:i:t=a tempo	!	!
!	!	!LO:TX:b:i:t=appassionato	!	!
2GG 2GGG/	.	(8cc#XL 8a#X 8c#X/	.	.
.	.	8ddJ 8b 8d/)	.	.
.	.	2dd 2b 2d/	.	.
4B 4D\	.	.	.	.
!!linebreak:original
=308	=308	=308	=308	=308
*xywh-#17:370,2340,2360,548	*	*xywh-#17:370,2340,2360,548	*	*
4B 4D#X\	.	(8dd#XL 8b 8d#X/	.	.
.	.	8eeJ 8ccn 8e/)	.	.
(4c 4E\	.	2ee 2cc 2e/	.	.
4GG/)	.	.	.	.
=309	=309	=309	=309	=309
4GG 4GGG/	.	(8ffnL 8ccn 8fn\	.	.
.	.	8ff#XJ 8f#X\)	.	.
4c 4E-X\	.	4ff# 4f#'\	.	.
[4e-X [4F#\	.	4bb 4b'\	.	.
=310	=310	=310	=310	=310
4e-] 4F#\]	.	(2aa 2ff# 2a\	.	.
(4e-X 4c 4F#X\	.	.	.	.
4d 4B 4G\)	.	4gg 4g\)	.	.
=311	=311	=311	=311	=311
2C 2CC/	.	(8ff#L 8dd 8f#\	.	.
.	.	8eeJ 8cc 8e\)	.	.
.	.	(4.eee 4.ccc 4.ee\	.	.
4e 4c 4G\	.	.	.	.
.	.	8ddd 8bb 8dd\)	.	.
=312	=312	=312	=312	=312
2E 2EE/	.	(8cccL 8aa 8cc\	.	.
.	.	8dddJ 8bb 8dd\)	.	.
.	.	(4.eee 4.ccc 4.ee\	.	.
4g#X 4d 4B\	.	.	.	.
.	.	8ddd 8bb 8dd\)	.	.
=313	=313	=313	=313	=313
2AA/	.	(8cccL 8aa 8cc\	.	.
.	.	8dddJ 8bb 8dd\)	.	.
.	.	4ccc 4aa 4cc'\	.	.
4e 4A\	.	4bb 4ggn 4b'\	.	.
!!linebreak:original
=314	=314	=314	=314	=314
*xywh-#17:356,2967,2374,530	*	*xywh-#17:356,2967,2374,530	*	*
4C/	.	2aa 2ff# 2a\	.	.
(4e 4A 4F#\	.	.	.	.
4d\)	.	8bbL 8b\	.	.
.	.	8cccJ 8cc\	.	.
=315	=315	=315	=315	=315
4BB/	.	(4.ddd 4.dd\	.	.
*clefG2	*	*	*	*
4g 4B/	.	.	.	.
.	.	8aa-X\L	.	.
[4b [4d/	.	8gg\	.	.
.	.	8ff#\J)	.	.
=316	=316	=316	=316	=316
4b] 4d/]	.	(4.ffn\	<	.
4b 4d/	.	.	.	.
.	.	8ff#X\L	.	.
4g 4B/	.	8gg\	.	.
.	.	8ddd#X\J)	[[	.
*clefF4	*	*	*	*
=317	=317	=317	=317	=317
4C/	.	(4.eee 4.ee\	.	.
.	.	.	<	.
*clefG2	*	*	*	*
4g 4c/	.	.	.	.
.	.	8bb-X\L	.	.
4cc 4e/	.	8aa\	.	.
.	.	8gg#X\J)	.	.
*clefF4	*	*	*	*
=318	=318	=318	=318	=318
4C#X/	.	(4.ggn\	.	.
*clefG2	*	*	*	*
4b-X 4c#X/	.	.	.	.
.	.	8gg#X\L	.	.
4cc#X 4e/	.	8aa\	.	.
.	.	8gggn\J)	[[	.
!!pagebreak:original
*clefF4	*	*	*	*
=319	=319	=319	=319	=319
*xywh-#18:454,404,2439,616	*	*xywh-#18:454,404,2439,616	*	*
*ped	*	*	*	*
!	!	!LO:TX:b:i:t=accelerando	!	!
4D 4DD/	.	(4.ggg 4.gg\	.	.
*clefG2	*	*	*	*
(4g 4B/	.	.	.	.
.	.	8aa#X\L	.	.
[4b [4d/)	.	8bb\	.	.
.	.	8bbb\J)	.	.
=320	=320	=320	=320	=320
*	*	*8va	*	*
4b] 4d/]	.	(4.bbb 4.bb\	.	.
(4b 4d/	.	.	.	.
.	.	8ccc#X\L	.	.
[4dd [4g\)	.	8ddd\	.	.
.	.	8dddd\J)	.	.
=321	=321	=321	=321	=321
4dd] 4g\]	.	(4.dddd 4.ddd\	.	.
(4dd 4g\	.	.	.	.
.	.	8fff#\L	.	.
[4gg [4b\)	.	8ggg\	.	.
.	.	8gggg\J)	.	.
=322	=322	=322	=322	=322
4gg] 4b\]	.	(4.gggg 4.ggg\	.	.
(4gg 4b\	.	.	.	.
.	.	8aaa#X\L	.	.
[4bb [4dd\)	.	8bbb\	.	.
.	.	8gggg\J)	.	.
=323	=323	=323	=323	=323
4bb] 4dd\]	.	(4.gggg 4.ggg\	.	.
(4gg 4b\	.	.	.	.
.	.	8aaa#X\L	.	.
[4bb [4dd\)	.	8bbb\	.	.
.	.	8gggg\J)	.	.
!!linebreak:original
=324	=324	=324	=324	=324
*xywh-#18:449,1021,2429,579	*	*xywh-#18:449,1021,2429,579	*	*
4bb] 4dd\]	.	(4.gggg 4.ggg\	.	.
(4gg 4b\	.	.	.	.
.	.	8aaa#X\L	.	.
[4bb [4dd\)	.	8bbb\	.	.
.	.	8gggg\J)	.	.
=325	=325	=325	=325	=325
4bb] 4dd\]	.	(4.gggg 4.ggg\	.	.
(4gg 4b\	.	.	.	.
.	.	8aaa#X\L	.	.
[4bb [4dd\)	.	8bbb\	.	.
.	.	8gggg\J)	.	.
=326	=326	=326	=326	=326
4bb] 4dd\]	.	(4.gggg 4.ggg\	.	.
(4gg 4b\	.	.	.	.
.	.	8aaa#X\L	.	.
4bb 4dd\)	.	8bbb\	.	.
*Xped	*	*	*	*
.	.	8gggg\J)	.	.
=327	=327	=327	=327	=327
!	!	!LO:TX:t=P:problem=łączenie przez systemy, mixed beam przez 4 takty	!	!
2.ryy	.	(8gggg^\L	.	.
.	.	8aaa#X\	.	.
.	.	8bbb\	.	.
*	*	*X8va	*	*
.	.	8ggg</	.	.
.	.	8aa#X</	.	.
.	.	8bb</J)	.	.
=328	=328	=328	=328	=328
2.ryy	.	(8ggg^\L	.	.
.	.	8aa#X\	.	.
.	.	8bb\	.	.
.	.	8gg</	.	.
.	.	8a#X</	.	.
.	.	8b</J)	.	.
!!linebreak:original
=329	=329	=329	=329	=329
*xywh-#18:454,1707,2425,607	*	*xywh-#18:454,1707,2425,607	*	*
2.ryy	.	(8gg^\L	.	.
.	.	8a#X\	.	.
.	.	8b\	.	.
*clefF4	*	*	*	*
.	.	8g</	.	.
.	.	8A#X</	.	.
.	.	8B</J)	.	.
=330	=330	=330	=330	=330
2.ryy	.	(8g^\L	.	.
.	.	8A#X\	.	.
.	.	8B\	.	.
.	.	8G</	.	.
.	.	8AA#X</	.	.
.	.	8BB</J)	.	.
=331	=331	=331	=331	=331
!	!	!LO:TX:t=P:łuk:problem	!	!
4.ryy	.	(8G<^>/L	.	.
.	.	8AA#X</	.	.
.	.	8BB</J	.	.
8GG\L	.	4.ryy	.	.
8AAA#X\	.	.	.	.
8BBB\J)	.	.	.	.
=332	=332	=332	=332	=332
!	!	!LO:TX:t=P:łuk:problem	!	!
4.ryy	.	(8G<^>/L	.	.
.	.	8AA#X</	.	.
.	.	8BB</J	.	.
8GG\L	.	4.ryy	.	.
8AAA#X\	.	.	.	.
8BBB\J)	.	.	.	.
=333	=333	=333	=333	=333
!	!	!LO:TX:t=P:łuk:problem	!	!
4.ryy	.	8G<^>/L	.	.
.	.	8AA#X</	.	.
.	.	8BB</J	.	.
8GG\L	.	4.ryy	.	.
8AAA#X\	.	.	.	.
8BBB\J)	.	.	.	.
!!linebreak:original
=334	=334	=334	=334	=334
*xywh-#18:463,2352,2420,537	*	*xywh-#18:463,2352,2420,537	*	*
!	!	!LO:TX:t=P:łuk:problem	!	!
4.ryy	.	8G<^>/L	.	.
.	.	8AA#X</	.	.
.	.	8BB</J	.	.
8GG\L	.	4.ryy	.	.
8AAA#X\	.	.	.	.
8BBB\J)	.	.	.	.
=335	=335	=335	=335	=335
[<2.BBB^^\	.	2.ryy	f	.
*	*	*clefF4	*	*
=336	=336	=336	=336	=336
[2.FF# 2.BBB^^/_	.	[2.F# [2.D#X [2.BB^^\	.	.
=337	=337	=337	=337	=337
2.FF#_ 2.BBB/]	.	2.F#_ 2.D#_ 2.BB\]	.	.
=338	=338	=338	=338	=338
2.FF#] 2.AAA/	.	2.F#] 2.D#] 2.C\	.	.
=339	=339	=339	=339	=339
[2.EE-X [2.GGG/	.	[2.G [2.C^\	>	.
=340	=340	=340	=340	=340
2.EE-] 2.GGG/_	.	2.G_ 2.C\]	.	.
=341	=341	=341	=341	=341
[2.DD 2.GGG/_	.	2.G_ [2.BB\	.	.
=342	=342	=342	=342	=342
2.DD] 2.GGG/_	.	2.G_ 2.BB\]	.	.
!!linebreak:original
*xywh-#18:463,2890,2420,653	*	*xywh-#18:463,2890,2420,653	*	*
=343	=343	=343	=343	=343
[2.CC#X 2.GGG/_	.	2.G_ [2.AA#X\	.	.
=344	=344	=344	=344	=344
2.CC#_ 2.GGG/_	.	2.G] 2.AA#\]	.	.
=345	=345	=345	=345	=345
2.CC#] 2.GGG/]	.	[2.F#\	.	.
=346	=346	=346	=346	=346
!	!	!LO:TX:t=P:łuk:problem	!	!
2ryy	.	2F#\]	.	.
[>4E/)	.	4r	]	.
*	*	*clefG2	*	*
=347	=347	=347	=347	=347
*ped	*	*8va	*	*
!	!	!LO:TX:a:B:t=Molto vivace.	!	!
4E] 4GG/	.	(8ddddL 8fff#\	pp	2 5
.	.	8eee\	.	1
4D'\	.	8fff# 8ddd\	.	2 4
.	.	8ccc\	.	1
4c'\	.	8bb\	.	2
.	.	8aa\J	.	1
*	*	*X8va	*	*
=348	=348	=348	=348	=348
2a^\	.	8dddL 8ff#\	.	.
.	.	8ee\	.	.
.	.	8ff# 8dd\	.	.
.	.	8cc\	.	.
4r	.	8b\	.	.
.	.	8a\J)	.	.
*Xped	*	*	*	*
=349	=349	=349	=349	=349
4GG'/	.	(8ggL 8b\	.	2 5
.	.	8a\	.	1
4D'\	.	8b 8g\	.	4 5
.	.	8f#\	.	3
4B'\	.	8e\	.	2
.	.	8d\J)	.	1
!!pagebreak:original
=350	=350	=350	=350	=350
*xywh-#19:322,470,2390,569	*	*xywh-#19:322,470,2390,569	*	*
!	!	!LO:TX:t=P:problem=łączenie przez systemy	!	!
2.ryy	.	(8gL 8B\	.	2 5
.	.	8A\	.	1
.	.	8B 8G\	.	2 4
.	.	8F#</	.	.
.	.	8E</	.	.
.	.	8D</J)	.	.
=351	=351	=351	=351	=351
*	*	*8va	*	*
4GG'/	.	(8ddddL 8fff#\	.	.
.	.	8eee\	.	.
4D'\	.	8fff# 8ddd\	.	.
.	.	8ccc\	.	.
4c'\	.	8bb\	.	.
.	.	8aa\J	.	.
*	*	*X8va	*	*
=352	=352	=352	=352	=352
2a^\	.	8dddL 8ff#\	.	.
.	.	8ee\	.	.
.	.	8ff# 8dd\	.	.
.	.	8cc\	.	.
4r	.	8b\	.	.
.	.	8a\J)	.	.
=353	=353	=353	=353	=353
4GG'/	.	(>8ggL 8b\	.	.
.	.	8a\	.	.
4D'\	.	8b 8g\	.	.
.	.	8f#\	.	.
4B'\	.	8e\	.	.
.	.	8d\J	.	.
=354	=354	=354	=354	=354
!	!	!LO:TX:t=P:problem=łączenie przez systemy	!	!
2.ryy	.	8gL 8B\	.	.
.	.	8A\	.	.
.	.	8B 8G\	.	.
.	.	8F#</	.	.
.	.	8E</	.	.
.	.	8D</J)	.	.
!!linebreak:original
=355	=355	=355	=355	=355
*xywh-#19:327,1078,2368,614	*	*xywh-#19:327,1078,2368,614	*	*
*	*	*8va	*	*
4GG'/	.	(8ddddL 8fff#\	.	.
.	.	8eee\	.	.
4D'\	.	8fff# 8ddd\	.	.
.	.	8ccc\	.	.
4c'\	.	8bb\	.	.
.	.	8aa\J	.	.
*	*	*X8va	*	*
=356	=356	=356	=356	=356
2a^\	.	8dddL 8ff#\	.	.
.	.	8ee\	.	.
.	.	8ff# 8dd\	.	.
.	.	8cc\	.	.
4r	.	8b\	.	.
.	.	8a\J)	.	.
=357	=357	=357	=357	=357
!	!	!LO:TX:t=P:problem=łączenie przez systemy	!	!
(<4GG\	.	(>8ddL 8f#\	.	.
.	.	8e\	.	.
8D\)	.	8f# 8d\	.	.
4.ryy	.	8c</	.	.
.	.	8B</	.	.
.	.	8A</J)	.	.
=358	=358	=358	=358	=358
!	!	!LO:TX:t=P:łuk:problem	!	!
4.ryy	.	(8d<L 8F#</	.	.
.	.	8E</	.	.
.	.	8F#<J 8D</	.	.
8C\L	.	4.ryy	.	.
8BB\	.	.	.	.
8AA\J)	.	.	.	.
=359	=359	=359	=359	=359
!	!	!LO:TX:t=P:łuk:problem	!	!
4.ryy	.	(8d<L 8F#</	.	.
.	.	8E</	.	.
.	.	8F#<J 8D</	.	.
8C\L	.	4.ryy	.	.
8BB\	.	.	.	.
8AA\J)	.	.	.	.
!!linebreak:original
=360	=360	=360	=360	=360
*xywh-#19:311,1754,2379,586	*	*xywh-#19:311,1754,2379,586	*	*
!	!	!LO:TX:t=P:łuk:problem	!	!
4.ryy	.	(8d<L 8F#</	.	.
.	.	8E</	.	.
.	.	8F#<J 8D</	.	.
8C\L	.	4.ryy	.	.
8BB\	.	.	.	.
8AA\J)	.	.	.	.
=361	=361	=361	=361	=361
!	!	!LO:TX:t=P:łuk:problem	!	!
4.ryy	.	(8d<L 8F#</	.	.
.	.	8E</	.	.
.	.	8F#<J 8D</	.	.
8C\L	.	4.ryy	.	.
8BB\	.	.	.	.
8AA\J)	.	.	.	.
=362	=362	=362	=362	=362
!	!	!LO:TX:t=P:łuk:problem	!	!
4.ryy	.	(8d<L 8F#</	.	.
.	.	8E</	.	.
.	.	8F#<J 8D</	.	.
8C\L	.	4.ryy	.	.
8BB\	.	.	.	.
8AA\J)	.	.	.	.
=363	=363	=363	=363	=363
!	!	!	!LO:DY:t=sempre %s	!
(2AA#X 2CC#X\	.	(8E</L	pp	4
.	.	8C#X</	.	2
.	.	8E</	.	4
.	.	8C#</	.	2
4GGG\	.	8E-X</	.	3
.	.	8D</J	.	1
=364	=364	=364	=364	=364
4BB 4DD'\)	.	8F#</L	.	2
.	.	8G</	.	3
4r	.	8A#X</	.	4
.	.	8B</	.	1
4r	.	8c#X</	.	2
.	.	8d</J)	.	3
!!linebreak:original
=365	=365	=365	=365	=365
*xywh-#19:311,2368,2368,592	*	*xywh-#19:311,2368,2368,592	*	*
(2A#X 2C#X\	.	(8e/L	.	.
.	.	8c#X/	.	.
.	.	8e/	.	.
.	.	8c#/	.	.
4GG/	.	8e-X/	.	.
.	.	8d/J	.	.
=366	=366	=366	=366	=366
4B 4D'\)	.	8f#/L	.	.
.	.	8g/	.	.
4r	.	8a#X/	.	.
.	.	8b/	.	.
4r	.	8cc#X/	.	.
.	.	8dd/J)	.	.
*clefG2	*	*	*	*
=367	=367	=367	=367	=367
(2a#X 2c#X/	.	(8ee\L	.	.
.	.	8cc#X\	.	.
.	.	8ee\	.	.
.	.	8cc#\	.	.
4G/	.	8ee-X\	.	.
.	.	8dd\J	.	.
=368	=368	=368	=368	=368
4b 4d'/)	.	8ff#\L	.	.
.	.	8gg\	.	.
4r	.	8aa#X\	.	.
.	.	8bb\	.	.
4r	.	8ccc#X\	.	.
.	.	8ddd\J)	.	.
=369	=369	=369	=369	=369
(2aa#X 2cc#X\	.	(8eee\L	.	.
.	.	8ccc#X\	.	.
.	.	8eee\	.	.
.	.	8ccc#\	.	.
4g/	.	8eee-X\	.	.
.	.	8ddd\J)	.	.
!!linebreak:original
=370	=370	=370	=370	=370
*xywh-#19:311,2960,2357,730	*	*xywh-#19:311,2960,2357,730	*	*
*	*	*8va	*	*
4bb 4dd'\)	.	(8fff#\L	.	.
.	.	8ggg\	.	.
4r	.	8aaa#X\	.	.
.	.	8bbb\	.	.
4r	.	8cccc#X\	.	.
.	.	8dddd\J	.	.
=371	=371	=371	=371	=371
2.r	.	4gggg'\)	.	.
*	*	*X8va	*	*
.	.	4r	.	.
.	.	4r	.	.
=372	=372	=372	=372	=372
2.r	.	2.r	.	.
*clefF4	*	*	*	*
=373	=373	=373	=373	=373
*ped	*	*	*	*
4a:: 4f#:: 4d#X:: 4B::\	.	4bb:: 4ff#:: 4dd#X:: 4b::\	.	.
4r	.	4r	.	.
4r	.	4r	.	.
=374	=374	=374	=374	=374
2.r	.	2.r	.	.
=375	=375	=375	=375	=375
4GG/	.	2.r	.	.
4r	.	.	.	.
4r	.	.	.	.
=376	=376	=376	=376	=376
2.r	.	2.r	.	.
*Xped	*	*	*	*
*clefG2	*	*	*	*
=377	=377	=377	=377	=377
*	*	*^	*	*
*	*	*	*xywh-#19:311,2960,2357,730	*	*
*ped	*	*	*	*	*
!	!	!LO:TX:a:i:t=m.g.	!	!	!
4b:: 4g:: 4d:: 4G::/	.	4ggg::/	4ddd:: 4bb:: 4gg:: 4dd::\	.	.
4r	.	4r	2ryy	.	.
4r	.	4r	.	.	.
*	*	*v	*v	*	*
*clefF4	*	*	*	*
=378	=378	=378	=378	=378
2.r	.	2.r	.	.
=379	=379	=379	=379	=379
4GGG/	.	2.r;	.	.
4r	.	.	.	.
4r;	.	.	.	.
*Xped	*	*	*	*
==	==	==	==	==
*-	*-	*-	*-	*-
!!!system-decoration: {(s1,s2)}
!!!RDF**kern: N = link
!!!RDF**kern: > = above
!!!RDF**kern: < = below
!!!ENC: Katarzyna Serwa
!!!END: 2022-02-15
!!!ENC: Filip Voros
!!!END: 2022-02-09
!!!ENC-iiif: Magdalena Agnieszka Krok
!!!END-iiif: 2022-09-02
